luts/cinematic_teal_orange.cube
# Generated by OpenMontage LUT Generator
TITLE "Cinematic Teal & Orange"
LUT_3D_SIZE 5
DOMAIN_MIN 0.0 0.0 0.0
DOMAIN_MAX 1.0 1.0 1.0
0.000000 0.018000 0.048000
0.224317 0.015410 0.041092
0.478299 0.013020 0.034721
0.731946 0.010832 0.028886
0.985258 0.008845 0.023587
0.000000 0.263105 0.034946
0.231818 0.260909 0.029091
0.494845 0.252203 0.000000
0.752893 0.249308 0.000000
0.990784 0.255529 0.014745
0.000000 0.508985 0.023959
0.238027 0.507184 0.019157
0.490693 0.505584 0.014892
0.757884 0.510554 0.000000
1.000000 0.501514 0.000000
0.000000 0.755640 0.015039
0.242943 0.754234 0.011291
0.494951 0.753029 0.008079
0.746623 0.752026 0.005403
1.000000 0.751948 0.000000
0.000000 1.000000 0.008187
0.246568 1.000000 0.005492
0.497917 1.000000 0.003333
0.748931 1.000000 0.001710
0.999610 1.000000 0.000624
0.000000 0.016989 0.295303
0.225875 0.014475 0.288600
0.479729 0.012162 0.282433
0.733249 0.010051 0.276802
0.986432 0.008141 0.271708
0.000000 0.262244 0.282650
0.233125 0.260125 0.277000
0.486321 0.258207 0.271886
0.739182 0.256491 0.267309
0.991708 0.254975 0.263268
0.000000 0.508274 0.272065
0.239083 0.506550 0.267468
0.491621 0.505028 0.263407
0.758700 0.494187 0.225591
1.000000 0.465142 0.198647
0.000000 0.755080 0.263547
0.243748 0.753751 0.260003
0.495628 0.752623 0.256995
0.747173 0.751696 0.254524
1.000000 0.732363 0.193238
0.000000 1.000000 0.257096
0.247122 1.000000 0.254605
0.498343 1.000000 0.252651
0.749230 1.000000 0.251233
0.999781 1.000000 0.250351
0.000000 0.016006 0.542684
0.227384 0.013569 0.536185
0.481111 0.011334 0.530223
0.734502 0.009299 0.524797
0.987558 0.007465 0.519907
0.000000 0.261412 0.530433
0.234383 0.259370 0.524987
0.487451 0.257529 0.520078
0.740184 0.255889 0.515705
0.992582 0.254451 0.511868
0.000000 0.507593 0.520249
0.240090 0.505946 0.515856
0.492500 0.504500 0.512000
0.744575 0.503255 0.508680
0.996314 0.502211 0.505897
0.000000 0.754550 0.512132
0.244504 0.753297 0.508793
0.496256 0.752246 0.505990
0.747673 0.751396 0.503723
1.000000 0.731818 0.462828
0.000000 1.000000 0.506083
0.247627 1.000000 0.503797
0.498721 1.000000 0.502047
0.749479 1.000000 0.500833
0.999903 1.000000 0.500156
0.000000 0.015054 0.790143
0.228845 0.012693 0.783849
0.482443 0.010534 0.778091
0.735707 0.008576 0.772869
0.988635 0.006819 0.768184
0.000000 0.260610 0.778293
0.235593 0.258644 0.773052
0.488533 0.256880 0.768347
0.741138 0.255317 0.764179
0.993408 0.253955 0.760547
0.000000 0.506942 0.768511
0.241048 0.505371 0.764323
0.493331 0.504002 0.760671
0.745278 0.502833 0.757556
0.996889 0.501866 0.754977
0.000000 0.754048 0.760796
0.245212 0.752873 0.757661
0.496836 0.751898 0.755062
0.748125 0.751125 0.753000
0.999079 0.750553 0.751474
0.000000 1.000000 0.755148
0.248084 1.000000 0.753066
0.499049 1.000000 0.751521
0.749680 1.000000 0.750512
0.999976 1.000000 0.750039
0.000000 0.014130 1.000000
0.230256 0.011846 1.000000
0.483727 0.009764 1.000000
0.736863 0.007882 1.000000
0.989663 0.006202 1.000000
0.000000 0.259837 1.000000
0.236753 0.257948 1.000000
0.489566 0.256260 1.000000
0.742043 0.254774 1.000000
0.994185 0.253489 1.000000
0.000000 0.506319 1.000000
0.241958 0.504825 1.000000
0.494113 0.503532 1.000000
0.745932 0.502441 1.000000
0.997416 0.501551 1.000000
0.000000 0.753576 1.000000
0.245871 0.752478 1.000000
0.497367 0.751580 1.000000
0.748528 0.750883 1.000000
0.999354 0.750388 1.000000
0.000000 1.000000 1.000000
0.248491 1.000000 1.000000
0.499329 1.000000 1.000000
0.749832 1.000000 1.000000
1.000000 1.000000 1.000000
