luts/cinematic_teal_orange.cube
# Generated by OpenMontage LUT Generator
TITLE "Cinematic Teal & Orange"
LUT_3D_SIZE 9
DOMAIN_MIN 0.0 0.0 0.0
DOMAIN_MAX 1.0 1.0 1.0
0.000000 0.018000 0.048000
0.097201 0.016680 0.044479
0.224317 0.015410 0.041092
0.351350 0.014190 0.037839
0.478299 0.013020 0.034721
0.605165 0.011901 0.031736
0.731946 0.010832 0.028886
0.858644 0.009814 0.026169
0.985258 0.008845 0.023587
0.000000 0.140455 0.041214
0.101277 0.139234 0.037957
0.232794 0.133466 0.019749
0.362200 0.121879 0.006103
0.481882 0.135871 0.028988
0.608583 0.134850 0.026267
0.735200 0.133880 0.023680
0.861733 0.132960 0.021227
0.988183 0.132090 0.018908
0.000000 0.263105 0.034946
0.105030 0.261982 0.031951
0.231818 0.260909 0.029091
0.365692 0.257099 0.000000
0.494845 0.252203 0.000000
0.623912 0.250128 0.000000
0.752893 0.249308 0.000000
0.881789 0.249131 0.000000
0.990784 0.255529 0.014745
0.000000 0.385948 0.029194
0.108461 0.384924 0.026463
0.235084 0.383950 0.023866
0.361623 0.383026 0.021403
0.497840 0.385402 0.000000
0.626740 0.382240 0.000000
0.755553 0.380668 0.000000
0.884281 0.379931 0.000000
1.000000 0.374823 0.000000
0.000000 0.508985 0.023959
0.111568 0.508059 0.021491
0.238027 0.507184 0.019157
0.364402 0.506359 0.016958
0.490693 0.505584 0.014892
0.629238 0.512505 0.000000
0.757884 0.510554 0.000000
0.886444 0.509513 0.000000
1.000000 0.501514 0.000000
0.000000 0.632215 0.019241
0.114352 0.631389 0.017036
0.240647 0.630612 0.014966
0.366857 0.629886 0.013029
0.492983 0.629210 0.011227
0.619026 0.628585 0.009559
0.744985 0.628009 0.008025
0.888277 0.638131 0.000000
1.000000 0.627112 0.000000
0.000000 0.755640 0.015039
0.116814 0.754912 0.013098
0.242943 0.754234 0.011291
0.368989 0.753607 0.009618
0.494951 0.753029 0.008079
0.620829 0.752503 0.006674
0.746623 0.752026 0.005403
0.872334 0.751600 0.004266
1.000000 0.751948 0.000000
0.000000 0.879258 0.011355
0.118952 0.878629 0.009677
0.244917 0.878050 0.008133
0.370798 0.877521 0.006723
0.496595 0.877043 0.005447
0.622309 0.876615 0.004306
0.747939 0.876237 0.003298
0.873485 0.875909 0.002425
0.998947 0.875632 0.001685
0.000000 1.000000 0.008187
0.120767 1.000000 0.006773
0.246568 1.000000 0.005492
0.372284 1.000000 0.004345
0.497917 1.000000 0.003333
0.623466 1.000000 0.002454
0.748931 1.000000 0.001710
0.874313 1.000000 0.001100
0.999610 1.000000 0.000624
0.000000 0.017491 0.171642
0.098018 0.016189 0.168172
0.225102 0.014939 0.164836
0.352103 0.013738 0.161635
0.479021 0.012588 0.158567
0.605854 0.011488 0.155634
0.732604 0.010438 0.152834
0.859269 0.009438 0.150169
0.985851 0.008489 0.147638
0.000000 0.139984 0.164957
0.102031 0.138781 0.161750
0.228952 0.137629 0.158678
0.355788 0.136527 0.155739
0.482541 0.135476 0.152935
0.609209 0.134474 0.150265
0.735795 0.133523 0.147729
0.862296 0.132623 0.145327
0.988713 0.131772 0.143059
0.000000 0.262671 0.158788
0.105722 0.261567 0.155845
0.232478 0.260513 0.153036
0.366333 0.256570 0.136331
0.495452 0.245191 0.123202
0.612242 0.257655 0.145413
0.738662 0.256803 0.143140
0.864999 0.256001 0.141001
0.991252 0.255249 0.138997
0.000000 0.385551 0.153137
0.109090 0.384546 0.150457
0.235681 0.383592 0.147911
0.362188 0.382687 0.145499
0.498384 0.380756 0.117902
0.627250 0.369562 0.105231
0.756032 0.358429 0.092715
0.884727 0.347359 0.080353
1.000000 0.331924 0.067249
0.000000 0.508626 0.148002
0.112134 0.507720 0.145585
0.238561 0.506864 0.143303
0.364904 0.506058 0.141154
0.491163 0.505302 0.139140
0.629685 0.505490 0.100830
0.758298 0.494479 0.088617
0.886826 0.483531 0.076559
1.000000 0.465537 0.063683
0.000000 0.631894 0.143384
0.114856 0.631087 0.141231
0.241118 0.630329 0.139211
0.367296 0.629622 0.137326
0.493391 0.628966 0.135575
0.619401 0.628359 0.133958
0.760235 0.630769 0.085116
0.888595 0.619943 0.073361
1.000000 0.599074 0.060736
0.000000 0.755356 0.139283
0.117254 0.754647 0.137393
0.243352 0.753989 0.135637
0.369366 0.753381 0.134015
0.495296 0.752823 0.132527
0.621142 0.752315 0.131173
0.746904 0.751858 0.129954
0.872582 0.751451 0.128868
1.000000 0.732663 0.058402
0.000000 0.879012 0.135699
0.119330 0.878402 0.134072
0.245263 0.877842 0.132580
0.371112 0.877333 0.131221
0.496877 0.876874 0.129996
0.622559 0.876465 0.128906
0.748157 0.876106 0.127949
0.873671 0.875798 0.127127
0.999101 0.875540 0.126439
0.000000 1.000000 0.132632
0.121082 1.000000 0.131268
0.246851 1.000000 0.130039
0.372535 1.000000 0.128943
0.498136 1.000000 0.127982
0.623653 1.000000 0.127155
0.749086 1.000000 0.126462
0.874436 1.000000 0.125903
0.999701 1.000000 0.125478
0.000000 0.016989 0.295303
0.098822 0.015707 0.291884
0.225875 0.014475 0.288600
0.352844 0.013293 0.285449
0.479729 0.012162 0.282433
0.606531 0.011081 0.279551
0.733249 0.010051 0.276802
0.859882 0.009071 0.274188
0.986432 0.008141 0.271708
0.000000 0.139519 0.288718
0.102773 0.138336 0.285563
0.229662 0.137203 0.282541
0.356466 0.136120 0.279654
0.483187 0.135088 0.276901
0.609824 0.134106 0.274282
0.736377 0.133174 0.271797
0.862846 0.132292 0.269446
0.989231 0.131461 0.267230
0.000000 0.262244 0.282650
0.106401 0.261159 0.279758
0.233125 0.260125 0.277000
0.359765 0.259141 0.274376
0.486321 0.258207 0.271886
0.612793 0.257324 0.269530
0.739182 0.256491 0.267309
0.865487 0.255708 0.265221
0.991708 0.254975 0.263268
0.000000 0.385162 0.277099
0.109706 0.384176 0.274470
0.236265 0.383241 0.271975
0.362741 0.382356 0.269615
0.498915 0.380370 0.254642
0.627749 0.369199 0.242030
0.741664 0.380001 0.263337
0.867804 0.379317 0.261513
0.993861 0.378684 0.259823
0.000000 0.508274 0.272065
0.112688 0.507387 0.269699
0.239083 0.506550 0.267468
0.365394 0.505764 0.265370
0.491621 0.505028 0.263407
0.630119 0.505173 0.237745
0.758700 0.494187 0.225591
0.887195 0.483262 0.213592
1.000000 0.465142 0.198647
0.000000 0.631580 0.267547
0.115347 0.630792 0.265445
0.241577 0.630054 0.263477
0.367723 0.629366 0.261643
0.493786 0.628728 0.259943
0.619765 0.628141 0.258377
0.760573 0.630523 0.222205
0.888900 0.619721 0.210509
1.000000 0.598718 0.195615
0.000000 0.755080 0.263547
0.117683 0.754390 0.261708
0.243748 0.753751 0.260003
0.369730 0.753162 0.258432
0.495628 0.752623 0.256995
0.621442 0.752135 0.255693
0.747173 0.751696 0.254524
0.890275 0.756419 0.208022
1.000000 0.732363 0.193238
0.000000 0.878774 0.260063
0.119695 0.878183 0.258487
0.245596 0.877642 0.257046
0.371414 0.877152 0.255738
0.497147 0.876712 0.254565
0.622797 0.876322 0.253525
0.748363 0.875982 0.252620
0.873845 0.875693 0.251849
0.999243 0.875454 0.251212
0.000000 1.000000 0.257096
0.121385 1.000000 0.255784
0.247122 1.000000 0.254605
0.372774 1.000000 0.253561
0.498343 1.000000 0.252651
0.623828 1.000000 0.251875
0.749230 1.000000 0.251233
0.874547 1.000000 0.250725
0.999781 1.000000 0.250351
0.000000 0.016494 0.418984
0.099615 0.015231 0.415616
0.226636 0.014019 0.412383
0.353573 0.012856 0.409283
0.480426 0.011744 0.406318
0.607196 0.010683 0.403487
0.733881 0.009671 0.400790
0.860483 0.008710 0.398227
0.987001 0.007799 0.395798
0.000000 0.139062 0.412499
0.103503 0.137898 0.409395
0.230360 0.136784 0.406425
0.357132 0.135721 0.403589
0.483821 0.134708 0.400887
0.610426 0.133745 0.398319
0.736947 0.132832 0.395885
0.863384 0.131970 0.393585
0.989738 0.131157 0.391420
0.000000 0.261824 0.406532
0.107068 0.260759 0.403691
0.233760 0.259744 0.400984
0.360368 0.258779 0.398411
0.486892 0.257865 0.395972
0.613333 0.257000 0.393668
0.739689 0.256186 0.391497
0.865962 0.255423 0.389461
0.992151 0.254709 0.387558
0.000000 0.384780 0.401081
0.110310 0.383814 0.398503
0.236838 0.382897 0.396060
0.363281 0.382031 0.393750
0.489641 0.381215 0.391575
0.615917 0.380450 0.389533
0.742109 0.379735 0.387626
0.868217 0.379070 0.385853
0.994241 0.378455 0.384214
0.000000 0.507930 0.396147
0.113230 0.507062 0.393833
0.239592 0.506245 0.391652
0.365871 0.505477 0.389606
0.492066 0.504760 0.387694
0.630541 0.504866 0.374681
0.759089 0.493903 0.362587
0.870149 0.502911 0.382762
0.996009 0.502395 0.381386
0.000000 0.631274 0.391730
0.115826 0.630505 0.389679
0.242024 0.629786 0.387762
0.368138 0.629117 0.385979
0.494169 0.628499 0.384330
0.620116 0.627931 0.382815
0.760898 0.630286 0.359316
0.889193 0.619508 0.347679
1.000000 0.598378 0.330447
0.000000 0.754811 0.387830
0.118099 0.754141 0.386042
0.244132 0.753521 0.384388
0.370082 0.752951 0.382868
0.495948 0.752431 0.381483
0.621731 0.751962 0.380231
0.747429 0.751543 0.379114
0.890504 0.756253 0.345308
1.000000 0.732082 0.328045
0.000000 0.878542 0.384447
0.120049 0.877971 0.382922
0.245918 0.877449 0.381531
0.371703 0.876978 0.380275
0.497405 0.876557 0.379152
0.623022 0.876187 0.378164
0.748556 0.875866 0.377310
0.874006 0.875596 0.376590
1.000000 0.866000 0.326339
0.000000 1.000000 0.381580
0.121676 1.000000 0.380319
0.247380 1.000000 0.379191
0.373001 1.000000 0.378198
0.498538 1.000000 0.377339
0.623991 1.000000 0.376614
0.749361 1.000000 0.376023
0.874646 1.000000 0.375566
0.999848 1.000000 0.375244
0.000000 0.016006 0.542684
0.100395 0.014763 0.539368
0.227384 0.013569 0.536185
0.354289 0.012426 0.533137
0.481111 0.011334 0.530223
0.607848 0.010291 0.527443
0.734502 0.009299 0.524797
0.861072 0.008357 0.522285
0.987558 0.007465 0.519907
0.000000 0.138612 0.536300
0.104221 0.137468 0.533247
0.231045 0.136373 0.530328
0.357786 0.135329 0.527543
0.484443 0.134334 0.524892
0.611016 0.133391 0.522375
0.737505 0.132497 0.519992
0.863910 0.131654 0.517744
0.990232 0.130861 0.515629
0.000000 0.261412 0.530433
0.107723 0.260366 0.527643
0.234383 0.259370 0.524987
0.360959 0.258424 0.522465
0.487451 0.257529 0.520078
0.613860 0.256684 0.517824
0.740184 0.255889 0.515705
0.866425 0.255145 0.513720
0.992582 0.254451 0.511868
0.000000 0.384406 0.525082
0.110903 0.383458 0.522556
0.237398 0.382561 0.520163
0.363810 0.381714 0.517905
0.490137 0.380918 0.515780
0.616381 0.380171 0.513790
0.742541 0.379475 0.511934
0.868617 0.378830 0.510212
0.994610 0.378234 0.508624
0.000000 0.507593 0.520249
0.113759 0.506745 0.517985
0.240090 0.505946 0.515856
0.366337 0.505198 0.513861
0.492500 0.504500 0.512000
0.618579 0.503852 0.510273
0.744575 0.503255 0.508680
0.870487 0.502708 0.507221
0.996314 0.502211 0.505897
0.000000 0.630975 0.515932
0.116292 0.630225 0.513932
0.242459 0.629525 0.512066
0.368541 0.628875 0.510334
0.494540 0.628276 0.508736
0.620455 0.627727 0.507273
0.761211 0.630058 0.496450
0.889473 0.619303 0.484872
0.997696 0.626382 0.503686
0.000000 0.754550 0.512132
0.118503 0.753898 0.510396
0.244504 0.753297 0.508793
0.370422 0.752747 0.507324
0.496256 0.752246 0.505990
0.622007 0.751796 0.504789
0.747673 0.751396 0.503723
0.890721 0.756095 0.482617
1.000000 0.731818 0.462828
0.000000 0.878319 0.508849
0.120390 0.877766 0.507376
0.246227 0.877264 0.506036
0.371981 0.876812 0.504831
0.497650 0.876410 0.503760
0.623236 0.876059 0.502823
0.748738 0.875757 0.502020
0.874156 0.875507 0.501351
1.000000 0.865813 0.461157
0.000000 1.000000 0.506083
0.121954 1.000000 0.504873
0.247627 1.000000 0.503797
0.373216 1.000000 0.502855
0.498721 1.000000 0.502047
0.624142 1.000000 0.501373
0.749479 1.000000 0.500833
0.874733 1.000000 0.500428
0.999903 1.000000 0.500156
0.000000 0.015526 0.666404
0.101164 0.014302 0.663138
0.228121 0.013128 0.660007
0.354994 0.012004 0.657010
0.481783 0.010930 0.654147
0.608489 0.009907 0.651418
0.735110 0.008934 0.648823
0.861648 0.008011 0.646363
0.988102 0.007139 0.644036
0.000000 0.138170 0.660120
0.104926 0.137044 0.657118
0.231719 0.135969 0.654250
0.358427 0.134944 0.651516
0.485052 0.133969 0.648916
0.611593 0.133044 0.646451
0.738050 0.132170 0.644119
0.864424 0.131346 0.641922
0.990713 0.130572 0.639859
0.000000 0.261007 0.654353
0.108366 0.259980 0.651614
0.234994 0.259004 0.649010
0.361538 0.258077 0.646539
0.487998 0.257201 0.644203
0.614375 0.256375 0.642000
0.740667 0.255600 0.639932
0.866876 0.254874 0.637998
0.993001 0.254199 0.636198
0.000000 0.384039 0.649103
0.111483 0.383110 0.646628
0.237946 0.382232 0.644286
0.364326 0.381405 0.642079
0.490621 0.380627 0.640006
0.616833 0.379900 0.638067
0.742961 0.379223 0.636262
0.869006 0.378597 0.634591
0.994966 0.378020 0.633054
0.000000 0.507264 0.644370
0.114276 0.506434 0.642158
0.240575 0.505655 0.640080
0.366790 0.504926 0.638136
0.492921 0.504247 0.636326
0.618969 0.503619 0.634650
0.744932 0.503041 0.633108
0.870812 0.502513 0.631701
0.996608 0.502035 0.630427
0.000000 0.630683 0.640154
0.116747 0.629952 0.638205
0.242881 0.629271 0.636390
0.368932 0.628641 0.634709
0.494898 0.628061 0.633163
0.620781 0.627531 0.631750
0.746580 0.627052 0.630472
0.872295 0.626623 0.629327
0.997927 0.626244 0.628317
0.000000 0.754295 0.636454
0.118895 0.753663 0.634769
0.244864 0.753081 0.633217
0.370750 0.752550 0.631800
0.496552 0.752069 0.630516
0.622271 0.751638 0.629367
0.747905 0.751257 0.628352
0.890925 0.755947 0.619948
1.000000 0.731572 0.597592
0.000000 0.878102 0.633272
0.120719 0.877569 0.631849
0.246524 0.877085 0.630561
0.372246 0.876653 0.629407
0.497883 0.876270 0.628387
0.623437 0.875938 0.627501
0.748907 0.875656 0.626749
0.874293 0.875424 0.626131
1.000000 0.865645 0.595973
0.000000 1.000000 0.630606
0.122221 1.000000 0.629447
0.247861 1.000000 0.628422
0.373418 1.000000 0.627531
0.498891 1.000000 0.626774
0.624280 1.000000 0.626151
0.749586 1.000000 0.625663
0.874807 1.000000 0.625308
0.999945 1.000000 0.625088
0.000000 0.015054 0.790143
0.101920 0.013848 0.786929
0.228845 0.012693 0.783849
0.355686 0.011589 0.780903
0.482443 0.010534 0.778091
0.609117 0.009530 0.775413
0.735707 0.008576 0.772869
0.862213 0.007672 0.770460
0.988635 0.006819 0.768184
0.000000 0.137735 0.783960
0.105620 0.136628 0.781009
0.232380 0.135572 0.778192
0.359057 0.134566 0.775509
0.485650 0.133610 0.772961
0.612159 0.132705 0.770546
0.738584 0.131850 0.768266
0.864925 0.131045 0.766119
0.991183 0.130290 0.764107
0.000000 0.260610 0.778293
0.108997 0.259602 0.775605
0.235593 0.258644 0.773052
0.362105 0.257737 0.770633
0.488533 0.256880 0.768347
0.614878 0.256073 0.766196
0.741138 0.255317 0.764179
0.867315 0.254611 0.762296
0.993408 0.253955 0.760547
0.000000 0.383679 0.773144
0.112051 0.382770 0.770719
0.238482 0.381911 0.768429
0.364830 0.381102 0.766273
0.491093 0.380344 0.764251
0.617273 0.379636 0.762363
0.743369 0.378978 0.760609
0.869382 0.378371 0.758989
0.995310 0.377814 0.757503
0.000000 0.506942 0.768511
0.114781 0.506131 0.766350
0.241048 0.505371 0.764323
0.367231 0.504661 0.762430
0.493331 0.504002 0.760671
0.619346 0.503392 0.759046
0.745278 0.502833 0.757556
0.871125 0.502325 0.756199
0.996889 0.501866 0.754977
0.000000 0.630398 0.764395
0.117189 0.629686 0.762497
0.243292 0.629025 0.760733
0.369310 0.628414 0.759104
0.495245 0.627853 0.757608
0.621096 0.627343 0.756247
0.746863 0.626882 0.755019
0.872546 0.626472 0.753926
0.998146 0.626113 0.752967
0.000000 0.754048 0.760796
0.119274 0.753435 0.759161
0.245212 0.752873 0.757661
0.371066 0.752360 0.756294
0.496836 0.751898 0.755062
0.622522 0.751487 0.753964
0.748125 0.751125 0.753000
0.873644 0.750814 0.752170
0.999079 0.750553 0.751474
0.000000 0.877893 0.757714
0.121036 0.877378 0.756342
0.246809 0.876914 0.755105
0.372499 0.876501 0.754002
0.498104 0.876137 0.753033
0.623626 0.875824 0.752198
0.749064 0.875562 0.751497
0.874418 0.875349 0.750931
1.000000 0.865496 0.730790
0.000000 1.000000 0.755148
0.122475 1.000000 0.754040
0.248084 1.000000 0.753066
0.373608 1.000000 0.752227
0.499049 1.000000 0.751521
0.624407 1.000000 0.750949
0.749680 1.000000 0.750512
0.874870 1.000000 0.750208
0.999976 1.000000 0.750039
0.000000 0.014588 0.913902
0.102663 0.013402 0.910739
0.229556 0.012266 0.907710
0.356366 0.011181 0.904815
0.483091 0.010145 0.902054
0.609733 0.009160 0.899427
0.736291 0.008226 0.896935
0.862765 0.007341 0.894576
0.989155 0.006507 0.892352
0.000000 0.137307 0.907819
0.106301 0.136220 0.904919
0.233029 0.135182 0.902153
0.359674 0.134196 0.899522
0.486235 0.133259 0.897024
0.612712 0.132373 0.894661
0.739105 0.131537 0.892432
0.865415 0.130751 0.890336
0.991640 0.130016 0.888375
0.000000 0.260220 0.902253
0.109615 0.259231 0.899616
0.236179 0.258293 0.897114
0.362659 0.257405 0.894745
0.489056 0.256567 0.892511
0.615368 0.255779 0.890411
0.741597 0.255042 0.888445
0.867742 0.254355 0.886613
0.993803 0.253718 0.884915
0.000000 0.383326 0.897203
0.112606 0.382436 0.894830
0.239006 0.381597 0.892591
0.365321 0.380807 0.890486
0.491553 0.380068 0.888515
0.617701 0.379379 0.886678
0.743765 0.378741 0.884975
0.869746 0.378153 0.883407
0.995642 0.377615 0.881972
0.000000 0.506627 0.892671
0.115274 0.505835 0.890561
0.241509 0.505094 0.888585
0.367660 0.504404 0.886743
0.493728 0.503763 0.885036
0.619711 0.503173 0.883462
0.745611 0.502634 0.882023
0.871427 0.502144 0.880717
0.997159 0.501705 0.879546
0.000000 0.630121 0.888655
0.117620 0.629428 0.886809
0.243690 0.628786 0.885096
0.369676 0.628194 0.883518
0.495579 0.627652 0.882073
0.621398 0.627161 0.880763
0.747133 0.626720 0.879587
0.872785 0.626329 0.878545
0.998352 0.625989 0.877637
0.000000 0.753809 0.885157
0.119642 0.753215 0.883573
0.245547 0.752672 0.882124
0.371369 0.752178 0.880809
0.497108 0.751735 0.879628
0.622762 0.751343 0.878581
0.748333 0.751000 0.877668
0.873819 0.750708 0.876889
0.999222 0.750467 0.876244
0.000000 0.877691 0.882175
0.121341 0.877196 0.880855
0.247082 0.876751 0.879669
0.372739 0.876356 0.878617
0.498313 0.876012 0.877699
0.623803 0.875718 0.876915
0.749209 0.875475 0.876266
0.874531 0.875281 0.875750
0.999770 0.875138 0.875369
0.000000 1.000000 0.879710
0.122717 1.000000 0.878653
0.248294 1.000000 0.877730
0.373786 1.000000 0.876942
0.499196 1.000000 0.876287
0.624521 1.000000 0.875767
0.749762 1.000000 0.875380
0.874920 1.000000 0.875128
0.999994 1.000000 0.875010
0.000000 0.014130 1.000000
0.103395 0.012963 1.000000
0.230256 0.011846 1.000000
0.357034 0.010780 1.000000
0.483727 0.009764 1.000000
0.610337 0.008798 1.000000
0.736863 0.007882 1.000000
0.863305 0.007017 1.000000
0.989663 0.006202 1.000000
0.000000 0.136886 1.000000
0.106970 0.135818 1.000000
0.233666 0.134800 1.000000
0.360279 0.133833 1.000000
0.486808 0.132915 1.000000
0.613253 0.132048 1.000000
0.739614 0.131231 1.000000
0.865892 0.130465 1.000000
0.992086 0.129749 1.000000
0.000000 0.259837 1.000000
0.110221 0.258867 1.000000
0.236753 0.257948 1.000000
0.363201 0.257079 1.000000
0.489566 0.256260 1.000000
0.615846 0.255492 1.000000
0.742043 0.254774 1.000000
0.868156 0.254106 1.000000
0.994185 0.253489 1.000000
0.000000 0.382981 1.000000
0.113150 0.382110 1.000000
0.239517 0.381290 1.000000
0.365801 0.380520 1.000000
0.492001 0.379800 1.000000
0.618117 0.379130 1.000000
0.744149 0.378511 1.000000
0.870097 0.377942 1.000000
0.995962 0.377423 1.000000
0.000000 0.506319 1.000000
0.115755 0.505547 1.000000
0.241958 0.504825 1.000000
0.368077 0.504154 1.000000
0.494113 0.503532 1.000000
0.620064 0.502962 1.000000
0.745932 0.502441 1.000000
0.871716 0.501971 1.000000
0.997416 0.501551 1.000000
0.000000 0.629851 1.000000
0.118038 0.629177 1.000000
0.244076 0.628554 1.000000
0.370031 0.627982 1.000000
0.495901 0.627459 1.000000
0.621688 0.626987 1.000000
0.747391 0.626565 1.000000
0.873011 0.626194 1.000000
0.998546 0.625872 1.000000
0.000000 0.753576 1.000000
0.119997 0.753002 1.000000
0.245871 0.752478 1.000000
0.371661 0.752004 1.000000
0.497367 0.751580 1.000000
0.622990 0.751206 1.000000
0.748528 0.750883 1.000000
0.873983 0.750610 1.000000
0.999354 0.750388 1.000000
0.000000 0.877496 1.000000
0.121633 0.877020 1.000000
0.247343 0.876594 1.000000
0.372968 0.876219 1.000000
0.498510 0.875894 1.000000
0.623968 0.875619 1.000000
0.749342 0.875395 1.000000
0.874632 0.875221 1.000000
0.999838 0.875097 1.000000
0.000000 1.000000 1.000000
0.122947 1.000000 1.000000
0.248491 1.000000 1.000000
0.373952 1.000000 1.000000
0.499329 1.000000 1.000000
0.624623 1.000000 1.000000
0.749832 1.000000 1.000000
0.874958 1.000000 1.000000
1.000000 1.000000 1.000000
