luts/cinematic_teal_orange.cube
# Generated by OpenMontage LUT Generator
TITLE "Cinematic Teal & Orange"
LUT_3D_SIZE 33
DOMAIN_MIN 0.0 0.0 0.0
DOMAIN_MAX 1.0 1.0 1.0
0.000000 0.018000 0.048000
0.001808 0.017665 0.047107
0.033611 0.017334 0.046223
0.065408 0.017005 0.045347
0.097201 0.016680 0.044479
0.128988 0.016357 0.043620
0.160769 0.016038 0.042769
0.192546 0.015722 0.041926
0.224317 0.015410 0.041092
0.256083 0.015100 0.040266
0.287844 0.014793 0.039449
0.319600 0.014490 0.038640
0.351350 0.014190 0.037839
0.383095 0.013893 0.037047
0.414835 0.013599 0.036263
0.446570 0.013308 0.035488
0.478299 0.013020 0.034721
0.510024 0.012736 0.033962
0.541743 0.012454 0.033212
0.573456 0.012176 0.032470
0.605165 0.011901 0.031736
0.636868 0.011629 0.031011
0.668566 0.011360 0.030294
0.700259 0.011095 0.029586
0.731946 0.010832 0.028886
0.763629 0.010573 0.028194
0.795306 0.010317 0.027511
0.826978 0.010063 0.026836
0.858644 0.009814 0.026169
0.890305 0.009567 0.025511
0.921961 0.009323 0.024862
0.953612 0.009083 0.024220
0.985258 0.008845 0.023587
0.000000 0.048596 0.046255
0.002888 0.048267 0.045379
0.034681 0.047942 0.044511
0.066468 0.047619 0.043651
0.098250 0.047300 0.042800
0.130027 0.046984 0.041957
0.161798 0.046671 0.041123
0.193565 0.046361 0.040297
0.225326 0.046055 0.039479
0.257081 0.045751 0.038670
0.288832 0.045451 0.037869
0.320577 0.045154 0.037076
0.352317 0.044860 0.036292
0.384052 0.044569 0.035516
0.415782 0.044281 0.034749
0.447506 0.043996 0.033990
0.479225 0.043715 0.033239
0.510939 0.043436 0.032497
0.542648 0.043161 0.031763
0.574351 0.042889 0.031038
0.606050 0.042620 0.030321
0.637743 0.042354 0.029612
0.669430 0.042092 0.028911
0.701113 0.041832 0.028219
0.732790 0.041576 0.027536
0.764462 0.041323 0.026861
0.796129 0.041073 0.026194
0.827790 0.040826 0.025535
0.859447 0.040582 0.024885
0.891098 0.040341 0.024244
0.922744 0.040104 0.023610
0.954384 0.039870 0.022985
0.986019 0.039638 0.022369
0.000000 0.079203 0.044543
0.003948 0.078881 0.043683
0.035731 0.078562 0.042831
0.067507 0.078246 0.041988
0.101265 0.077749 0.037233
0.133667 0.074816 0.033731
0.166063 0.071886 0.030238
0.194563 0.077012 0.038699
0.226314 0.076712 0.037898
0.258059 0.076414 0.037105
0.289800 0.076120 0.036321
0.321535 0.075829 0.035545
0.353264 0.075541 0.034777
0.384989 0.075257 0.034018
0.416708 0.074975 0.033267
0.448422 0.074697 0.032524
0.480131 0.074421 0.031790
0.511835 0.074149 0.031064
0.543533 0.073880 0.030347
0.575226 0.073614 0.029638
0.606914 0.073351 0.028937
0.638597 0.073092 0.028245
0.670274 0.072835 0.027561
0.701947 0.072582 0.026885
0.733614 0.072332 0.026218
0.765275 0.072085 0.025559
0.796932 0.071841 0.024909
0.828583 0.071600 0.024267
0.860229 0.071363 0.023634
0.891870 0.071128 0.023008
0.923505 0.070897 0.022391
0.955136 0.070669 0.021783
0.986761 0.070444 0.021183
0.000000 0.109823 0.042862
0.004988 0.109507 0.042019
0.036760 0.109194 0.041184
0.068527 0.108884 0.040357
0.100288 0.108577 0.039539
0.134685 0.108499 0.031889
0.167071 0.105577 0.028415
0.199452 0.102659 0.024951
0.231827 0.099745 0.021496
0.264197 0.096834 0.018052
0.296562 0.093928 0.014616
0.328921 0.091025 0.011191
0.354191 0.106235 0.033294
0.385905 0.105957 0.032551
0.417614 0.105681 0.031817
0.449318 0.105409 0.031091
0.481017 0.105140 0.030373
0.512710 0.104874 0.029664
0.544398 0.104611 0.028963
0.576081 0.104351 0.028270
0.607759 0.104095 0.027586
0.639431 0.103841 0.026910
0.671098 0.103591 0.026243
0.702760 0.103344 0.025584
0.734417 0.103100 0.024933
0.766068 0.102859 0.024291
0.797715 0.102621 0.023657
0.829356 0.102387 0.023031
0.860991 0.102155 0.022414
0.892622 0.101927 0.021805
0.924247 0.101702 0.021205
0.955867 0.101480 0.020613
0.987482 0.101261 0.020029
0.000000 0.140455 0.041214
0.006008 0.140145 0.040387
0.037769 0.139838 0.039569
0.069526 0.139534 0.038759
0.101277 0.139234 0.037957
0.133023 0.138936 0.037163
0.168059 0.139283 0.026630
0.200429 0.136373 0.023184
0.232794 0.133466 0.019749
0.265153 0.130563 0.016323
0.297507 0.127665 0.012907
0.329856 0.124770 0.009500
0.362200 0.121879 0.006103
0.394538 0.118992 0.002716
0.426870 0.116589 0.000000
0.459198 0.116239 0.000000
0.481882 0.135871 0.028988
0.513565 0.135611 0.028295
0.545243 0.135354 0.027611
0.576916 0.135101 0.026935
0.608583 0.134850 0.026267
0.640245 0.134603 0.025608
0.671902 0.134359 0.024957
0.703554 0.134118 0.024314
0.735200 0.133880 0.023680
0.766841 0.133645 0.023054
0.798477 0.133414 0.022437
0.830108 0.133185 0.021827
0.861733 0.132960 0.021227
0.893353 0.132738 0.020634
0.924968 0.132519 0.020051
0.956578 0.132303 0.019475
0.988183 0.132090 0.018908
0.000000 0.171100 0.039599
0.007007 0.170796 0.038788
0.038759 0.170495 0.037986
0.070505 0.170197 0.037192
0.102246 0.169903 0.036407
0.133981 0.169611 0.035630
0.165712 0.169323 0.034861
0.201386 0.170101 0.021455
0.233740 0.167202 0.018038
0.266089 0.164307 0.014631
0.298433 0.161416 0.011234
0.330771 0.158529 0.007846
0.363104 0.155645 0.004468
0.395431 0.152766 0.001100
0.427754 0.151350 0.000000
0.460071 0.150788 0.000000
0.492382 0.150365 0.000000
0.524688 0.150053 0.000000
0.556989 0.149828 0.000000
0.589285 0.149675 0.000000
0.609387 0.165618 0.024980
0.641039 0.165377 0.024338
0.672686 0.165139 0.023703
0.704327 0.164904 0.023077
0.735963 0.164672 0.022459
0.767594 0.164444 0.021850
0.799220 0.164218 0.021249
0.830840 0.163996 0.020656
0.862455 0.163777 0.020072
0.894065 0.163561 0.019496
0.925670 0.163348 0.018929
0.957269 0.163139 0.018369
0.988863 0.162932 0.017819
0.000000 0.201756 0.038015
0.007987 0.201458 0.037221
0.039728 0.201163 0.036436
0.071464 0.200872 0.035658
0.103194 0.200584 0.034889
0.134919 0.200298 0.034129
0.166640 0.200016 0.033377
0.198354 0.199737 0.032633
0.230064 0.199462 0.031897
0.267004 0.198066 0.012977
0.299337 0.195183 0.009599
0.331665 0.192303 0.006230
0.363987 0.189427 0.002871
0.396304 0.186808 0.000000
0.428616 0.185850 0.000000
0.460923 0.185101 0.000000
0.493224 0.184515 0.000000
0.525519 0.184060 0.000000
0.557810 0.183709 0.000000
0.590095 0.183444 0.000000
0.622375 0.183250 0.000000
0.654649 0.183114 0.000000
0.686918 0.183028 0.000000
0.719182 0.182983 0.000000
0.736706 0.195477 0.021271
0.768326 0.195254 0.020678
0.799942 0.195035 0.020093
0.831552 0.194819 0.019517
0.863157 0.194606 0.018949
0.894756 0.194396 0.018390
0.926351 0.194190 0.017839
0.957940 0.193986 0.017296
0.989524 0.193786 0.016762
0.000000 0.232424 0.036464
0.008946 0.232133 0.035687
0.040677 0.231844 0.034918
0.072402 0.231559 0.034157
0.104122 0.231277 0.033404
0.135837 0.230998 0.032660
0.167547 0.230722 0.031924
0.199252 0.230449 0.031197
0.230951 0.230179 0.030478
0.262645 0.229913 0.029767
0.300221 0.228964 0.008001
0.332538 0.226092 0.004651
0.364850 0.223224 0.001311
0.397157 0.221254 0.000000
0.429458 0.220103 0.000000
0.461754 0.219188 0.000000
0.494045 0.218458 0.000000
0.526330 0.217876 0.000000
0.558610 0.217413 0.000000
0.590884 0.217048 0.000000
0.623154 0.216763 0.000000
0.655417 0.216546 0.000000
0.687676 0.216385 0.000000
0.719929 0.216272 0.000000
0.752177 0.216199 0.000000
0.784419 0.216161 0.000000
0.816657 0.216153 0.000000
0.848888 0.216170 0.000000
0.863838 0.225447 0.017859
0.895427 0.225244 0.017316
0.927012 0.225043 0.016781
0.958590 0.224846 0.016255
0.990164 0.224652 0.015737
0.000000 0.263105 0.034946
0.009885 0.262819 0.034185
0.041605 0.262537 0.033432
0.073320 0.262258 0.032687
0.105030 0.261982 0.031951
0.136735 0.261709 0.031224
0.168435 0.261439 0.030504
0.200129 0.261173 0.029793
0.231818 0.260909 0.029091
0.263502 0.260649 0.028397
0.295181 0.260392 0.027711
0.333391 0.259896 0.003109
0.365692 0.257099 0.000000
0.397989 0.255441 0.000000
0.430279 0.254121 0.000000
0.462565 0.253060 0.000000
0.494845 0.252203 0.000000
0.527120 0.251509 0.000000
0.559389 0.250947 0.000000
0.591653 0.250493 0.000000
0.623912 0.250128 0.000000
0.656165 0.249838 0.000000
0.688413 0.249610 0.000000
0.720656 0.249436 0.000000
0.752893 0.249308 0.000000
0.785125 0.249218 0.000000
0.817352 0.249161 0.000000
0.849573 0.249134 0.000000
0.881789 0.249131 0.000000
0.914000 0.249150 0.000000
0.946205 0.249188 0.000000
0.978405 0.249242 0.000000
0.990784 0.255529 0.014745
0.000000 0.293797 0.033459
0.010803 0.293518 0.032715
0.042514 0.293242 0.031978
0.074219 0.292969 0.031250
0.105918 0.292699 0.030531
0.137613 0.292432 0.029819
0.169302 0.292169 0.029117
0.200986 0.291908 0.028422
0.232665 0.291651 0.027736
0.264338 0.291397 0.027059
0.296007 0.291146 0.026389
0.327670 0.290898 0.025728
0.366514 0.291211 0.000000
0.398800 0.289383 0.000000
0.431080 0.287916 0.000000
0.463355 0.286729 0.000000
0.495625 0.285761 0.000000
0.527889 0.284969 0.000000
0.560148 0.284320 0.000000
0.592401 0.283787 0.000000
0.624650 0.283351 0.000000
0.656893 0.282997 0.000000
0.689130 0.282710 0.000000
0.721362 0.282482 0.000000
0.753589 0.282304 0.000000
0.785811 0.282167 0.000000
0.818027 0.282068 0.000000
0.850238 0.282000 0.000000
0.882443 0.281960 0.000000
0.914643 0.281943 0.000000
0.946838 0.281947 0.000000
0.979028 0.281970 0.000000
1.000000 0.278881 0.000000
0.000000 0.324502 0.032005
0.011702 0.324229 0.031277
0.043402 0.323959 0.030557
0.075097 0.323692 0.029846
0.106786 0.323428 0.029142
0.138470 0.323168 0.028448
0.170149 0.322910 0.027761
0.201823 0.322656 0.027083
0.233491 0.322405 0.026414
0.265155 0.322157 0.025753
0.296813 0.321912 0.025100
0.328465 0.321671 0.024455
0.360113 0.321432 0.023819
0.399590 0.323092 0.000000
0.431860 0.321500 0.000000
0.464125 0.320204 0.000000
0.496384 0.319141 0.000000
0.528638 0.318264 0.000000
0.560886 0.317538 0.000000
0.593129 0.316938 0.000000
0.625367 0.316440 0.000000
0.657599 0.316029 0.000000
0.689826 0.315691 0.000000
0.722048 0.315415 0.000000
0.754264 0.315192 0.000000
0.786476 0.315015 0.000000
0.818681 0.314877 0.000000
0.850882 0.314774 0.000000
0.883077 0.314700 0.000000
0.915266 0.314652 0.000000
0.947451 0.314626 0.000000
0.979630 0.314620 0.000000
1.000000 0.310961 0.000000
0.000000 0.355219 0.030583
0.012580 0.354952 0.029872
0.044270 0.354688 0.029168
0.075954 0.354427 0.028473
0.107634 0.354170 0.027786
0.139307 0.353916 0.027108
0.170976 0.353664 0.026438
0.202640 0.353416 0.025777
0.234298 0.353171 0.025124
0.265951 0.352930 0.024479
0.297599 0.352691 0.023842
0.329241 0.352455 0.023214
0.360878 0.352223 0.022595
0.392510 0.351994 0.021984
0.432620 0.354884 0.000000
0.464874 0.353496 0.000000
0.497122 0.352351 0.000000
0.529366 0.351402 0.000000
0.561604 0.350611 0.000000
0.593836 0.349952 0.000000
0.626064 0.349401 0.000000
0.658285 0.348941 0.000000
0.690502 0.348558 0.000000
0.722713 0.348240 0.000000
0.754919 0.347979 0.000000
0.787120 0.347766 0.000000
0.819315 0.347594 0.000000
0.851505 0.347459 0.000000
0.883689 0.347355 0.000000
0.915868 0.347279 0.000000
0.948042 0.347227 0.000000
0.980211 0.347196 0.000000
1.000000 0.342940 0.000000
0.000000 0.385948 0.029194
0.013438 0.385687 0.028498
0.045118 0.385429 0.027812
0.076792 0.385175 0.027133
0.108461 0.384924 0.026463
0.140124 0.384675 0.025801
0.171783 0.384430 0.025147
0.203436 0.384188 0.024502
0.235084 0.383950 0.023866
0.266727 0.383714 0.023237
0.298364 0.383482 0.022617
0.329996 0.383252 0.022006
0.361623 0.383026 0.021403
0.393245 0.382803 0.020808
0.424862 0.382583 0.020222
0.465602 0.386615 0.000000
0.497840 0.385402 0.000000
0.530073 0.384391 0.000000
0.562301 0.383546 0.000000
0.594523 0.382836 0.000000
0.626740 0.382240 0.000000
0.658951 0.381738 0.000000
0.691157 0.381316 0.000000
0.723358 0.380963 0.000000
0.755553 0.380668 0.000000
0.787743 0.380424 0.000000
0.819928 0.380224 0.000000
0.852107 0.380061 0.000000
0.884281 0.379931 0.000000
0.916450 0.379830 0.000000
0.948613 0.379755 0.000000
0.980771 0.379701 0.000000
1.000000 0.374823 0.000000
0.000000 0.416689 0.027837
0.014276 0.416434 0.027158
0.045945 0.416183 0.026487
0.077609 0.415934 0.025825
0.109268 0.415689 0.025171
0.140921 0.415447 0.024526
0.172569 0.415208 0.023889
0.204212 0.414973 0.023260
0.235850 0.414740 0.022640
0.267482 0.414511 0.022028
0.299110 0.414284 0.021425
0.330731 0.414061 0.020830
0.362348 0.413841 0.020243
0.393960 0.413624 0.019665
0.425566 0.413411 0.019095
0.457167 0.413200 0.018533
0.488763 0.412992 0.017980
0.530760 0.417240 0.000000
0.562977 0.416349 0.000000
0.595189 0.415598 0.000000
0.627395 0.414964 0.000000
0.659596 0.414427 0.000000
0.691792 0.413973 0.000000
0.723982 0.413589 0.000000
0.756167 0.413266 0.000000
0.788346 0.412995 0.000000
0.820520 0.412769 0.000000
0.852689 0.412583 0.000000
0.884853 0.412431 0.000000
0.917011 0.412309 0.000000
0.949164 0.412213 0.000000
0.981311 0.412140 0.000000
1.000000 0.406617 0.000000
0.000000 0.447442 0.026512
0.015094 0.447193 0.025849
0.046753 0.446948 0.025195
0.078407 0.446706 0.024550
0.110055 0.446467 0.023912
0.141698 0.446231 0.023283
0.173336 0.445999 0.022663
0.204968 0.445769 0.022051
0.236596 0.445543 0.021447
0.268218 0.445319 0.020851
0.299835 0.445099 0.020264
0.331446 0.444882 0.019686
0.363053 0.444668 0.019116
0.394654 0.444458 0.018554
0.426250 0.444250 0.018000
0.457841 0.444046 0.017455
0.489426 0.443844 0.016918
0.521006 0.443646 0.016390
0.563633 0.449029 0.000000
0.595834 0.448244 0.000000
0.628030 0.447578 0.000000
0.660220 0.447013 0.000000
0.692405 0.446532 0.000000
0.724585 0.446123 0.000000
0.756760 0.445776 0.000000
0.788929 0.445483 0.000000
0.821092 0.445236 0.000000
0.853251 0.445030 0.000000
0.885404 0.444858 0.000000
0.917551 0.444718 0.000000
0.949694 0.444605 0.000000
0.981831 0.444515 0.000000
1.000000 0.438327 0.000000
0.000000 0.478207 0.025219
0.015892 0.477965 0.024573
0.047540 0.477726 0.023936
0.079184 0.477490 0.023306
0.110822 0.477257 0.022685
0.142454 0.477027 0.022073
0.174082 0.476801 0.021469
0.205704 0.476577 0.020873
0.237321 0.476357 0.020286
0.268933 0.476140 0.019707
0.300540 0.475926 0.019136
0.332141 0.475715 0.018574
0.363737 0.475508 0.018020
0.395328 0.475303 0.017475
0.426914 0.475102 0.016938
0.458494 0.474903 0.016409
0.490069 0.474708 0.015889
0.521639 0.474516 0.015377
0.553204 0.474328 0.014874
0.596459 0.480780 0.000000
0.628644 0.480090 0.000000
0.660824 0.479502 0.000000
0.692999 0.478999 0.000000
0.725168 0.478570 0.000000
0.757332 0.478204 0.000000
0.789490 0.477892 0.000000
0.821644 0.477628 0.000000
0.853792 0.477405 0.000000
0.885934 0.477218 0.000000
0.918071 0.477062 0.000000
0.950203 0.476934 0.000000
0.982330 0.476831 0.000000
1.000000 0.469957 0.000000
0.000000 0.508985 0.023959
0.016669 0.508748 0.023329
0.048307 0.508516 0.022708
0.079940 0.508286 0.022095
0.111568 0.508059 0.021491
0.143191 0.507836 0.020895
0.174808 0.507615 0.020307
0.206420 0.507398 0.019728
0.238027 0.507184 0.019157
0.269628 0.506973 0.018595
0.301225 0.506765 0.018041
0.332816 0.506561 0.017495
0.364402 0.506359 0.016958
0.395982 0.506161 0.016429
0.427558 0.505965 0.015908
0.459128 0.505773 0.015396
0.490693 0.505584 0.014892
0.522252 0.505399 0.014397
0.553807 0.505216 0.013909
0.585356 0.505037 0.013431
0.629238 0.512505 0.000000
0.661407 0.511899 0.000000
0.693571 0.511380 0.000000
0.725730 0.510935 0.000000
0.757884 0.510554 0.000000
0.790032 0.510228 0.000000
0.822174 0.509950 0.000000
0.854312 0.509713 0.000000
0.886444 0.509513 0.000000
0.918571 0.509345 0.000000
0.950692 0.509205 0.000000
0.982808 0.509090 0.000000
1.000000 0.501514 0.000000
0.000000 0.539774 0.022731
0.017426 0.539544 0.022118
0.049054 0.539317 0.021513
0.080677 0.539094 0.020917
0.112295 0.538873 0.020329
0.143907 0.538656 0.019749
0.175514 0.538442 0.019178
0.207115 0.538231 0.018615
0.238712 0.538023 0.018061
0.270303 0.537818 0.017515
0.301889 0.537616 0.016977
0.333470 0.537418 0.016448
0.365046 0.537223 0.015927
0.396616 0.537030 0.015414
0.428181 0.536841 0.014910
0.459741 0.536655 0.014415
0.491295 0.536473 0.013927
0.522845 0.536293 0.013448
0.554389 0.536117 0.012978
0.585928 0.535943 0.012515
0.617462 0.535773 0.012062
0.661970 0.544210 0.000000
0.694123 0.543680 0.000000
0.726272 0.543223 0.000000
0.758415 0.542831 0.000000
0.790552 0.542494 0.000000
0.822684 0.542206 0.000000
0.854811 0.541959 0.000000
0.886933 0.541749 0.000000
0.919049 0.541571 0.000000
0.951160 0.541421 0.000000
0.983266 0.541296 0.000000
1.000000 0.533003 0.000000
0.000000 0.570576 0.021535
0.018163 0.570352 0.020939
0.049781 0.570131 0.020350
0.081394 0.569914 0.019770
0.113001 0.569700 0.019199
0.144603 0.569488 0.018636
0.176199 0.569280 0.018081
0.207791 0.569076 0.017535
0.239377 0.568874 0.016997
0.270958 0.568675 0.016467
0.302534 0.568480 0.015946
0.334104 0.568287 0.015433
0.365670 0.568098 0.014929
0.397230 0.567912 0.014433
0.428784 0.567729 0.013945
0.460334 0.567550 0.013466
0.491878 0.567373 0.012995
0.523417 0.567200 0.012532
0.554951 0.567029 0.012078
0.586480 0.566862 0.011632
0.618003 0.566698 0.011195
0.649521 0.566537 0.010766
0.694655 0.575903 0.000000
0.726793 0.575439 0.000000
0.758925 0.575040 0.000000
0.791052 0.574696 0.000000
0.823174 0.574399 0.000000
0.855290 0.574145 0.000000
0.887402 0.573927 0.000000
0.919507 0.573742 0.000000
0.951608 0.573585 0.000000
0.983703 0.573452 0.000000
1.000000 0.564429 0.000000
0.000000 0.601389 0.020372
0.018880 0.601172 0.019792
0.050488 0.600957 0.019220
0.082090 0.600746 0.018656
0.113687 0.600538 0.018101
0.145278 0.600333 0.017555
0.176865 0.600131 0.017016
0.208446 0.599932 0.016487
0.240022 0.599737 0.015965
0.271593 0.599544 0.015452
0.303158 0.599355 0.014947
0.334718 0.599169 0.014451
0.366273 0.598986 0.013963
0.397823 0.598806 0.013483
0.429368 0.598629 0.013012
0.460907 0.598456 0.012549
0.492441 0.598286 0.012095
0.523970 0.598118 0.011649
0.555493 0.597954 0.011211
0.587011 0.597793 0.010782
0.618525 0.597635 0.010361
0.650032 0.597481 0.009948
0.681535 0.597329 0.009544
0.713032 0.597181 0.009148
0.759415 0.607185 0.000000
0.791532 0.606836 0.000000
0.823643 0.606535 0.000000
0.855749 0.606276 0.000000
0.887849 0.606054 0.000000
0.919945 0.605863 0.000000
0.952035 0.605701 0.000000
0.984119 0.605563 0.000000
1.000000 0.595796 0.000000
0.000000 0.632215 0.019241
0.019577 0.632004 0.018677
0.051174 0.631796 0.018122
0.082766 0.631590 0.017575
0.114352 0.631389 0.017036
0.145934 0.631190 0.016506
0.177510 0.630994 0.015984
0.209081 0.630801 0.015471
0.240647 0.630612 0.014966
0.272207 0.630426 0.014469
0.303762 0.630243 0.013981
0.335312 0.630063 0.013501
0.366857 0.629886 0.013029
0.398396 0.629712 0.012566
0.429930 0.629542 0.012111
0.461459 0.629374 0.011665
0.492983 0.629210 0.011227
0.524502 0.629049 0.010797
0.556015 0.628891 0.010376
0.587523 0.628736 0.009963
0.619026 0.628585 0.009559
0.650523 0.628436 0.009163
0.682016 0.628291 0.008775
0.713503 0.628148 0.008396
0.744985 0.628009 0.008025
0.791990 0.638920 0.000000
0.824091 0.638618 0.000000
0.856187 0.638356 0.000000
0.888277 0.638131 0.000000
0.920362 0.637938 0.000000
0.952441 0.637772 0.000000
0.984515 0.637631 0.000000
1.000000 0.627112 0.000000
0.000000 0.663053 0.018142
0.020253 0.662848 0.017595
0.051840 0.662646 0.017056
0.083422 0.662447 0.016525
0.114998 0.662251 0.016003
0.146569 0.662059 0.015489
0.178135 0.661869 0.014984
0.209696 0.661683 0.014487
0.241251 0.661499 0.013998
0.272801 0.661319 0.013518
0.304346 0.661142 0.013046
0.335886 0.660969 0.012583
0.367420 0.660798 0.012128
0.398949 0.660630 0.011681
0.430473 0.660466 0.011243
0.461992 0.660305 0.010813
0.493505 0.660147 0.010391
0.525014 0.659992 0.009978
0.556517 0.659840 0.009573
0.588014 0.659691 0.009177
0.619507 0.659546 0.008789
0.650994 0.659404 0.008409
0.682476 0.659264 0.008038
0.713953 0.659128 0.007675
0.745425 0.658995 0.007321
0.776891 0.658865 0.006975
0.824519 0.670650 0.000000
0.856604 0.670389 0.000000
0.888684 0.670163 0.000000
0.920758 0.669969 0.000000
0.952827 0.669802 0.000000
0.984890 0.669659 0.000000
1.000000 0.658379 0.000000
0.000000 0.693903 0.017075
0.020910 0.693704 0.016545
0.052486 0.693508 0.016022
0.084057 0.693316 0.015508
0.115623 0.693126 0.015002
0.147184 0.692939 0.014505
0.178740 0.692756 0.014016
0.210290 0.692576 0.013536
0.241835 0.692399 0.013064
0.273375 0.692225 0.012600
0.304910 0.692054 0.012144
0.336439 0.691887 0.011697
0.367963 0.691722 0.011259
0.399482 0.691561 0.010829
0.430996 0.691403 0.010407
0.462504 0.691247 0.009993
0.494007 0.691096 0.009588
0.525505 0.690947 0.009191
0.556998 0.690801 0.008803
0.588486 0.690659 0.008423
0.619968 0.690519 0.008052
0.651445 0.690383 0.007688
0.682917 0.690250 0.007334
0.714383 0.690120 0.006987
0.745844 0.689993 0.006649
0.777300 0.689870 0.006319
0.808751 0.689749 0.005998
0.857001 0.702378 0.000000
0.889070 0.702154 0.000000
0.921134 0.701961 0.000000
0.953192 0.701794 0.000000
0.985245 0.701652 0.000000
1.000000 0.689605 0.000000
0.000000 0.724765 0.016041
0.021546 0.724573 0.015527
0.053112 0.724383 0.015021
0.084673 0.724196 0.014523
0.116229 0.724013 0.014034
0.147779 0.723832 0.013553
0.179325 0.723655 0.013081
0.210865 0.723481 0.012617
0.242399 0.723310 0.012161
0.273929 0.723143 0.011714
0.305453 0.722978 0.011275
0.336972 0.722817 0.010844
0.368486 0.722658 0.010422
0.399995 0.722503 0.010008
0.431498 0.722351 0.009603
0.462996 0.722202 0.009206
0.494489 0.722056 0.008817
0.525977 0.721914 0.008437
0.557459 0.721774 0.008065
0.588936 0.721638 0.007702
0.620408 0.721505 0.007347
0.651875 0.721375 0.007000
0.683337 0.721248 0.006661
0.714793 0.721124 0.006331
0.746244 0.721004 0.006010
0.777690 0.720886 0.005697
0.809130 0.720772 0.005392
0.840565 0.720661 0.005095
0.889435 0.734107 0.000000
0.921489 0.733917 0.000000
0.953537 0.733752 0.000000
0.985579 0.733611 0.000000
1.000000 0.720793 0.000000
0.000000 0.755640 0.015039
0.022162 0.755453 0.014541
0.053718 0.755269 0.014052
0.085268 0.755089 0.013571
0.116814 0.754912 0.013098
0.148354 0.754738 0.012634
0.179889 0.754567 0.012178
0.211419 0.754399 0.011730
0.242943 0.754234 0.011291
0.274463 0.754072 0.010860
0.305977 0.753914 0.010437
0.337485 0.753759 0.010023
0.368989 0.753607 0.009618
0.400487 0.753458 0.009220
0.431980 0.753312 0.008831
0.463468 0.753169 0.008451
0.494951 0.753029 0.008079
0.526428 0.752893 0.007715
0.557900 0.752760 0.007359
0.589367 0.752630 0.007012
0.620829 0.752503 0.006674
0.652285 0.752379 0.006343
0.683737 0.752258 0.006022
0.715182 0.752141 0.005708
0.746623 0.752026 0.005403
0.778059 0.751915 0.005106
0.809489 0.751807 0.004818
0.840914 0.751702 0.004538
0.872334 0.751600 0.004266
0.921823 0.765840 0.000000
0.953861 0.765679 0.000000
0.985893 0.765541 0.000000
1.000000 0.751948 0.000000
0.000000 0.786526 0.014070
0.022757 0.786346 0.013588
0.054303 0.786168 0.013115
0.085843 0.785994 0.012651
0.117379 0.785823 0.012194
0.148909 0.785655 0.011746
0.180433 0.785490 0.011307
0.211953 0.785328 0.010876
0.243467 0.785170 0.010453
0.274976 0.785014 0.010038
0.306480 0.784862 0.009632
0.337978 0.784713 0.009235
0.369472 0.784567 0.008846
0.400960 0.784424 0.008465
0.432442 0.784285 0.008092
0.463920 0.784148 0.007728
0.495392 0.784015 0.007372
0.526859 0.783884 0.007025
0.558321 0.783757 0.006686
0.589778 0.783633 0.006355
0.621229 0.783512 0.006033
0.652675 0.783395 0.005719
0.684116 0.783280 0.005414
0.715552 0.783169 0.005117
0.746982 0.783061 0.004828
0.778408 0.782955 0.004548
0.809827 0.782854 0.004276
0.841242 0.782755 0.004012
0.872652 0.782659 0.003757
0.904056 0.782566 0.003511
0.935455 0.782477 0.003272
0.986186 0.797445 0.000000
1.000000 0.783076 0.000000
0.000000 0.817425 0.013133
0.023333 0.817250 0.012668
0.054868 0.817079 0.012211
0.086398 0.816911 0.011763
0.117923 0.816746 0.011323
0.149443 0.816584 0.010891
0.180957 0.816426 0.010468
0.212467 0.816270 0.010054
0.243970 0.816118 0.009647
0.275469 0.815968 0.009249
0.306963 0.815822 0.008860
0.338451 0.815679 0.008479
0.369934 0.815540 0.008106
0.401412 0.815403 0.007741
0.432884 0.815269 0.007385
0.464351 0.815139 0.007038
0.495814 0.815012 0.006698
0.527270 0.814888 0.006367
0.558722 0.814767 0.006045
0.590168 0.814649 0.005731
0.621609 0.814534 0.005425
0.653045 0.814423 0.005128
0.684476 0.814315 0.004839
0.715901 0.814209 0.004558
0.747321 0.814107 0.004286
