luts/clean_bright.cube
# Generated by OpenMontage LUT Generator
TITLE "Clean & Bright"
LUT_3D_SIZE 33
DOMAIN_MIN 0.0 0.0 0.0
DOMAIN_MAX 1.0 1.0 1.0
0.000000 0.000000 0.000000
0.044194 0.000000 0.000000
0.082469 0.000000 0.000000
0.118788 0.000000 0.000000
0.153893 0.000000 0.000000
0.188121 0.000000 0.000000
0.221667 0.000000 0.000000
0.254656 0.000000 0.000000
0.287175 0.000000 0.000000
0.319289 0.000000 0.000000
0.351047 0.000000 0.000000
0.382489 0.000000 0.000000
0.413645 0.000000 0.000000
0.444543 0.000000 0.000000
0.475204 0.000000 0.000000
0.505647 0.000000 0.000000
0.535887 0.000000 0.000000
0.565938 0.000000 0.000000
0.595813 0.000000 0.000000
0.625523 0.000000 0.000000
0.655076 0.000000 0.000000
0.684483 0.000000 0.000000
0.713749 0.000000 0.000000
0.742882 0.000000 0.000000
0.771890 0.000000 0.000000
0.800776 0.000000 0.000000
0.829547 0.000000 0.000000
0.858208 0.000000 0.000000
0.886762 0.000000 0.000000
0.915215 0.000000 0.000000
0.943570 0.000000 0.000000
0.971831 0.000000 0.000000
1.000000 0.000000 0.000000
0.000000 0.041235 0.000000
0.046404 0.043295 0.003712
0.086593 0.043275 0.006927
0.124728 0.044403 0.009978
0.153893 0.041235 0.000000
0.188121 0.041235 0.000000
0.221667 0.041235 0.000000
0.254656 0.041235 0.000000
0.287175 0.041235 0.000000
0.319289 0.041235 0.000000
0.351047 0.041235 0.000000
0.382489 0.041235 0.000000
0.413645 0.041235 0.000000
0.444543 0.041235 0.000000
0.475204 0.041235 0.000000
0.505647 0.041235 0.000000
0.535887 0.041235 0.000000
0.565938 0.041235 0.000000
0.595813 0.041235 0.000000
0.625523 0.041235 0.000000
0.655076 0.041235 0.000000
0.684483 0.041235 0.000000
0.713749 0.041235 0.000000
0.742882 0.041235 0.000000
0.771890 0.041235 0.000000
0.800776 0.041235 0.000000
0.829547 0.041235 0.000000
0.858208 0.041235 0.000000
0.886762 0.041235 0.000000
0.915215 0.041235 0.000000
0.943570 0.041235 0.000000
0.971831 0.041235 0.000000
1.000000 0.041235 0.000000
0.000000 0.078021 0.000000
0.044194 0.078021 0.000000
0.086593 0.081919 0.006927
0.124728 0.081900 0.009978
0.161588 0.081882 0.012927
0.197527 0.081864 0.015802
0.232750 0.082859 0.018620
0.254656 0.078021 0.000000
0.287175 0.078021 0.000000
0.319289 0.078021 0.000000
0.351047 0.078021 0.000000
0.382489 0.078021 0.000000
0.413645 0.078021 0.000000
0.444543 0.078021 0.000000
0.475204 0.078021 0.000000
0.505647 0.078021 0.000000
0.535887 0.078021 0.000000
0.565938 0.078021 0.000000
0.595813 0.078021 0.000000
0.625523 0.078021 0.000000
0.655076 0.078021 0.000000
0.684483 0.078021 0.000000
0.713749 0.078021 0.000000
0.742882 0.078021 0.000000
0.771890 0.078021 0.000000
0.800776 0.078021 0.000000
0.829547 0.078021 0.000000
0.858208 0.078021 0.000000
0.886762 0.078021 0.000000
0.915215 0.078021 0.000000
0.943570 0.078021 0.000000
0.971831 0.078021 0.000000
1.000000 0.078021 0.000000
0.000000 0.113296 0.000000
0.044194 0.113296 0.000000
0.082469 0.113296 0.000000
0.124728 0.118958 0.009978
0.161588 0.118939 0.012927
0.197527 0.118921 0.015802
0.232750 0.118904 0.018620
0.267388 0.118886 0.021391
0.301533 0.118869 0.024123
0.335253 0.119350 0.026820
0.351047 0.113296 0.000000
0.382489 0.113296 0.000000
0.413645 0.113296 0.000000
0.444543 0.113296 0.000000
0.475204 0.113296 0.000000
0.505647 0.113296 0.000000
0.535887 0.113296 0.000000
0.565938 0.113296 0.000000
0.595813 0.113296 0.000000
0.625523 0.113296 0.000000
0.655076 0.113296 0.000000
0.684483 0.113296 0.000000
0.713749 0.113296 0.000000
0.742882 0.113296 0.000000
0.771890 0.113296 0.000000
0.800776 0.113296 0.000000
0.829547 0.113296 0.000000
0.858208 0.113296 0.000000
0.886762 0.113296 0.000000
0.915215 0.113296 0.000000
0.943570 0.113296 0.000000
0.971831 0.113296 0.000000
1.000000 0.113296 0.000000
0.000000 0.147624 0.000000
0.044194 0.147624 0.000000
0.082469 0.147624 0.000000
0.118788 0.147624 0.000000
0.161588 0.155002 0.012927
0.197527 0.154984 0.015802
0.232750 0.154966 0.018620
0.267388 0.154949 0.021391
0.301533 0.154932 0.024123
0.335253 0.154915 0.026820
0.368599 0.154898 0.029488
0.401613 0.154882 0.032129
0.434328 0.154866 0.034746
0.444543 0.147624 0.000000
0.475204 0.147624 0.000000
0.505647 0.147624 0.000000
0.535887 0.147624 0.000000
0.565938 0.147624 0.000000
0.595813 0.147624 0.000000
0.625523 0.147624 0.000000
0.655076 0.147624 0.000000
0.684483 0.147624 0.000000
0.713749 0.147624 0.000000
0.742882 0.147624 0.000000
0.771890 0.147624 0.000000
0.800776 0.147624 0.000000
0.829547 0.147624 0.000000
0.858208 0.147624 0.000000
0.886762 0.147624 0.000000
0.915215 0.147624 0.000000
0.943570 0.147624 0.000000
0.971831 0.147624 0.000000
1.000000 0.147624 0.000000
0.000000 0.181265 0.000000
0.044194 0.181265 0.000000
0.082469 0.181265 0.000000
0.118788 0.181265 0.000000
0.153893 0.181265 0.000000
0.197527 0.190325 0.015802
0.232750 0.190307 0.018620
0.267388 0.190290 0.021391
0.301533 0.190273 0.024123
0.335253 0.190256 0.026820
0.368599 0.190239 0.029488
0.401613 0.190223 0.032129
0.434328 0.190206 0.034746
0.466770 0.190190 0.037342
0.498964 0.190174 0.039917
0.530929 0.190158 0.042474
0.562681 0.200314 0.045014
0.565938 0.181265 0.000000
0.595813 0.181265 0.000000
0.625523 0.181265 0.000000
0.655076 0.181265 0.000000
0.684483 0.181265 0.000000
0.713749 0.181265 0.000000
0.742882 0.181265 0.000000
0.771890 0.181265 0.000000
0.800776 0.181265 0.000000
0.829547 0.181265 0.000000
0.858208 0.181265 0.000000
0.886762 0.181265 0.000000
0.915215 0.181265 0.000000
0.943570 0.181265 0.000000
0.971831 0.181265 0.000000
1.000000 0.181265 0.000000
0.000000 0.214369 0.000000
0.044194 0.214369 0.000000
0.082469 0.214369 0.000000
0.118788 0.214369 0.000000
0.153893 0.214369 0.000000
0.188121 0.214369 0.000000
0.232750 0.225083 0.018620
0.267388 0.225066 0.021391
0.301533 0.225049 0.024123
0.335253 0.225032 0.026820
0.368599 0.225015 0.029488
0.401613 0.224999 0.032129
0.434328 0.224982 0.034746
0.466770 0.224966 0.037342
0.498964 0.224950 0.039917
0.530929 0.224934 0.042474
0.562681 0.224918 0.045014
0.594235 0.224902 0.047539
0.625604 0.224887 0.050048
0.656799 0.233820 0.052544
0.655076 0.214369 0.000000
0.684483 0.214369 0.000000
0.713749 0.214369 0.000000
0.742882 0.214369 0.000000
0.771890 0.214369 0.000000
0.800776 0.214369 0.000000
0.829547 0.214369 0.000000
0.858208 0.214369 0.000000
0.886762 0.214369 0.000000
0.915215 0.214369 0.000000
0.943570 0.214369 0.000000
0.971831 0.214369 0.000000
1.000000 0.214369 0.000000
0.000000 0.247031 0.000000
0.044194 0.247031 0.000000
0.082469 0.247031 0.000000
0.118788 0.247031 0.000000
0.153893 0.247031 0.000000
0.188121 0.247031 0.000000
0.221667 0.247031 0.000000
0.267388 0.259379 0.021391
0.301533 0.259362 0.024123
0.335253 0.259345 0.026820
0.368599 0.259328 0.029488
0.401613 0.259312 0.032129
0.434328 0.259296 0.034746
0.466770 0.259279 0.037342
0.498964 0.259263 0.039917
0.530929 0.259247 0.042474
0.562681 0.259231 0.045014
0.594235 0.259216 0.047539
0.625604 0.259200 0.050048
0.656799 0.259184 0.052544
0.687830 0.259169 0.055026
0.718707 0.259153 0.057497
0.749436 0.266799 0.059955
0.742882 0.247031 0.000000
0.771890 0.247031 0.000000
0.800776 0.247031 0.000000
0.829547 0.247031 0.000000
0.858208 0.247031 0.000000
0.886762 0.247031 0.000000
0.915215 0.247031 0.000000
0.943570 0.247031 0.000000
0.971831 0.247031 0.000000
1.000000 0.247031 0.000000
0.000000 0.279322 0.000000
0.044194 0.279322 0.000000
0.082469 0.279322 0.000000
0.118788 0.279322 0.000000
0.153893 0.279322 0.000000
0.188121 0.279322 0.000000
0.221667 0.279322 0.000000
0.254656 0.279322 0.000000
0.301533 0.293284 0.024123
0.335253 0.293267 0.026820
0.368599 0.293250 0.029488
0.401613 0.293234 0.032129
0.434328 0.293217 0.034746
0.466770 0.293201 0.037342
0.498964 0.293185 0.039917
0.530929 0.293169 0.042474
0.562681 0.293153 0.045014
0.594235 0.293137 0.047539
0.625604 0.293122 0.050048
0.656799 0.293106 0.052544
0.687830 0.293091 0.055026
0.718707 0.293075 0.057497
0.749436 0.293060 0.059955
0.780027 0.293045 0.062402
0.810484 0.293029 0.064839
0.840815 0.299330 0.067265
0.871024 0.310085 0.069682
0.858208 0.279322 0.000000
0.886762 0.279322 0.000000
0.915215 0.279322 0.000000
0.943570 0.279322 0.000000
0.971831 0.279322 0.000000
1.000000 0.279322 0.000000
0.000000 0.311290 0.000000
0.044194 0.311290 0.000000
0.082469 0.311290 0.000000
0.118788 0.311290 0.000000
0.153893 0.311290 0.000000
0.188121 0.311290 0.000000
0.221667 0.311290 0.000000
0.254656 0.311290 0.000000
0.301521 0.326854 0.026148
0.335253 0.326850 0.026820
0.368599 0.326834 0.029488
0.401613 0.326817 0.032129
0.434328 0.326801 0.034746
0.466770 0.326785 0.037342
0.498964 0.326768 0.039917
0.530929 0.326752 0.042474
0.562681 0.326737 0.045014
0.594235 0.326721 0.047539
0.625604 0.326705 0.050048
0.656799 0.326689 0.052544
0.687830 0.326674 0.055026
0.718707 0.326659 0.057497
0.749436 0.326643 0.059955
0.780027 0.326628 0.062402
0.810484 0.326613 0.064839
0.840815 0.326597 0.067265
0.871024 0.326582 0.069682
0.901118 0.326567 0.072089
0.931100 0.331472 0.074488
0.960976 0.342107 0.076878
0.943570 0.311290 0.000000
0.971831 0.311290 0.000000
1.000000 0.311290 0.000000
0.000000 0.342975 0.000000
0.044194 0.342975 0.000000
0.082469 0.342975 0.000000
0.118788 0.342975 0.000000
0.153893 0.342975 0.000000
0.188121 0.342975 0.000000
0.221667 0.342975 0.000000
0.254656 0.342975 0.000000
0.287175 0.342975 0.000000
0.335240 0.360123 0.028810
0.368599 0.360119 0.029488
0.401613 0.360103 0.032129
0.434328 0.360086 0.034746
0.466770 0.360070 0.037342
0.498964 0.360054 0.039917
0.530929 0.360038 0.042474
0.562681 0.360022 0.045014
0.594235 0.360006 0.047539
0.625604 0.359991 0.050048
0.656799 0.359975 0.052544
0.687830 0.359960 0.055026
0.718707 0.359944 0.057497
0.749436 0.359929 0.059955
0.780027 0.359913 0.062402
0.810484 0.359898 0.064839
0.840815 0.359883 0.067265
0.871024 0.359868 0.069682
0.901118 0.359853 0.072089
0.931100 0.359838 0.074488
0.960976 0.359823 0.076878
0.990749 0.359808 0.079260
1.000000 0.356000 0.080000
1.000000 0.356000 0.080000
0.000000 0.374406 0.000000
0.044194 0.374406 0.000000
0.082469 0.374406 0.000000
0.118788 0.374406 0.000000
0.153893 0.374406 0.000000
0.188121 0.374406 0.000000
0.221667 0.374406 0.000000
0.254656 0.374406 0.000000
0.287175 0.374406 0.000000
0.319289 0.374406 0.000000
0.368587 0.393127 0.031450
0.401613 0.393123 0.032129
0.434328 0.393106 0.034746
0.466770 0.393090 0.037342
0.498964 0.393074 0.039917
0.530929 0.393058 0.042474
0.562681 0.393042 0.045014
0.594235 0.393026 0.047539
0.625604 0.393011 0.050048
0.656799 0.392995 0.052544
0.687830 0.392979 0.055026
0.718707 0.392964 0.057497
0.749436 0.392949 0.059955
0.780027 0.392933 0.062402
0.810484 0.392918 0.064839
0.840815 0.392903 0.067265
0.871024 0.392888 0.069682
0.901118 0.392873 0.072089
0.931100 0.392858 0.074488
0.960976 0.392843 0.076878
0.990749 0.392828 0.079260
1.000000 0.384952 0.080000
1.000000 0.374094 0.080000
0.000000 0.405610 0.000000
0.044194 0.405610 0.000000
0.082469 0.405610 0.000000
0.118788 0.405610 0.000000
0.153893 0.405610 0.000000
0.188121 0.405610 0.000000
0.221667 0.405610 0.000000
0.254656 0.405610 0.000000
0.287175 0.405610 0.000000
0.319289 0.405610 0.000000
0.351047 0.405610 0.000000
0.401601 0.425891 0.034071
0.434328 0.425886 0.034746
0.466770 0.425870 0.037342
0.498964 0.425854 0.039917
0.530929 0.425838 0.042474
0.562681 0.425822 0.045014
0.594235 0.425806 0.047539
0.625604 0.425791 0.050048
0.656799 0.425775 0.052544
0.687830 0.425760 0.055026
0.718707 0.425744 0.057497
0.749436 0.425729 0.059955
0.780027 0.425714 0.062402
0.810484 0.425698 0.064839
0.840815 0.425683 0.067265
0.871024 0.425668 0.069682
0.901118 0.425653 0.072089
0.931100 0.425638 0.074488
0.960976 0.425623 0.076878
0.990749 0.425608 0.079260
1.000000 0.417076 0.080000
1.000000 0.405313 0.080000
0.000000 0.436606 0.000000
0.044194 0.436606 0.000000
0.082469 0.436606 0.000000
0.118788 0.436606 0.000000
0.153893 0.436606 0.000000
0.188121 0.436606 0.000000
0.221667 0.436606 0.000000
0.254656 0.436606 0.000000
0.287175 0.436606 0.000000
0.319289 0.436606 0.000000
0.351047 0.436606 0.000000
0.382489 0.436606 0.000000
0.434316 0.458437 0.036675
0.466770 0.458432 0.037342
0.498964 0.458416 0.039917
0.530929 0.458400 0.042474
0.562681 0.458384 0.045014
0.594235 0.458369 0.047539
0.625604 0.458353 0.050048
0.656799 0.458337 0.052544
0.687830 0.458322 0.055026
0.718707 0.458306 0.057497
0.749436 0.458291 0.059955
0.780027 0.458276 0.062402
0.810484 0.458260 0.064839
0.840815 0.458245 0.067265
0.871024 0.458230 0.069682
0.901118 0.458215 0.072089
0.931100 0.458200 0.074488
0.960976 0.458185 0.076878
0.990749 0.458170 0.079260
1.000000 0.448986 0.080000
1.000000 0.436325 0.080000
0.000000 0.467412 0.000000
0.044194 0.467412 0.000000
0.082469 0.467412 0.000000
0.118788 0.467412 0.000000
0.153893 0.467412 0.000000
0.188121 0.467412 0.000000
0.221667 0.467412 0.000000
0.254656 0.467412 0.000000
0.287175 0.467412 0.000000
0.319289 0.467412 0.000000
0.351047 0.467412 0.000000
0.382489 0.467412 0.000000
0.413645 0.467412 0.000000
0.466758 0.490783 0.039263
0.498964 0.490778 0.039917
0.530929 0.490762 0.042474
0.562681 0.490747 0.045014
0.594235 0.490731 0.047539
0.625604 0.490715 0.050048
0.656799 0.490700 0.052544
0.687830 0.490684 0.055026
0.718707 0.490669 0.057497
0.749436 0.490653 0.059955
0.780027 0.490638 0.062402
0.810484 0.490623 0.064839
0.840815 0.490608 0.067265
0.871024 0.490592 0.069682
0.901118 0.490577 0.072089
0.931100 0.490562 0.074488
0.960976 0.490547 0.076878
0.990749 0.490533 0.079260
1.000000 0.480701 0.080000
1.000000 0.467146 0.080000
0.000000 0.498042 0.000000
0.044194 0.498042 0.000000
0.082469 0.498042 0.000000
0.118788 0.498042 0.000000
0.153893 0.498042 0.000000
0.188121 0.498042 0.000000
0.221667 0.498042 0.000000
0.254656 0.498042 0.000000
0.287175 0.498042 0.000000
0.319289 0.498042 0.000000
0.351047 0.498042 0.000000
0.382489 0.498042 0.000000
0.413645 0.498042 0.000000
0.444543 0.498042 0.000000
0.498952 0.522944 0.041836
0.530929 0.522940 0.042474
0.562681 0.522924 0.045014
0.594235 0.522908 0.047539
0.625604 0.522893 0.050048
0.656799 0.522877 0.052544
0.687830 0.522862 0.055026
0.718707 0.522846 0.057497
0.749436 0.522831 0.059955
0.780027 0.522816 0.062402
0.810484 0.522800 0.064839
0.840815 0.522785 0.067265
0.871024 0.522770 0.069682
0.901118 0.522755 0.072089
0.931100 0.522740 0.074488
0.960976 0.522725 0.076878
0.990749 0.522710 0.079260
1.000000 0.512234 0.080000
1.000000 0.497791 0.080000
0.000000 0.528509 0.000000
0.044194 0.528509 0.000000
0.082469 0.528509 0.000000
0.118788 0.528509 0.000000
0.153893 0.528509 0.000000
0.188121 0.528509 0.000000
0.221667 0.528509 0.000000
0.254656 0.528509 0.000000
0.287175 0.528509 0.000000
0.319289 0.528509 0.000000
0.351047 0.528509 0.000000
0.382489 0.528509 0.000000
0.413645 0.528509 0.000000
0.444543 0.528509 0.000000
0.475204 0.528509 0.000000
0.530917 0.554934 0.044395
0.562681 0.554931 0.045014
0.594235 0.554915 0.047539
0.625604 0.554899 0.050048
0.656799 0.554884 0.052544
0.687830 0.554868 0.055026
0.718707 0.554853 0.057497
0.749436 0.554837 0.059955
0.780027 0.554822 0.062402
0.810484 0.554807 0.064839
0.840815 0.554792 0.067265
0.871024 0.554776 0.069682
0.901118 0.554761 0.072089
0.931100 0.554746 0.074488
0.960976 0.554731 0.076878
0.990749 0.554717 0.079260
1.000000 0.543600 0.080000
1.000000 0.528273 0.080000
0.000000 0.558824 0.000000
0.044194 0.558824 0.000000
0.082469 0.558824 0.000000
0.118788 0.558824 0.000000
0.153893 0.558824 0.000000
0.188121 0.558824 0.000000
0.221667 0.558824 0.000000
0.254656 0.558824 0.000000
0.287175 0.558824 0.000000
0.319289 0.558824 0.000000
0.351047 0.558824 0.000000
0.382489 0.558824 0.000000
0.413645 0.558824 0.000000
0.444543 0.558824 0.000000
0.475204 0.558824 0.000000
0.505647 0.558824 0.000000
0.562669 0.586765 0.046941
0.594235 0.586761 0.047539
0.625604 0.586746 0.050048
0.656799 0.586730 0.052544
0.687830 0.586715 0.055026
0.718707 0.586699 0.057497
0.749436 0.586684 0.059955
0.780027 0.586669 0.062402
0.810484 0.586653 0.064839
0.840815 0.586638 0.067265
0.871024 0.586623 0.069682
0.901118 0.586608 0.072089
0.931100 0.586593 0.074488
0.960976 0.586578 0.076878
0.990749 0.586563 0.079260
1.000000 0.574810 0.080000
1.000000 0.558603 0.080000
0.000000 0.588997 0.000000
0.044194 0.588997 0.000000
0.082469 0.588997 0.000000
0.118788 0.588997 0.000000
0.153893 0.588997 0.000000
0.188121 0.588997 0.000000
0.221667 0.588997 0.000000
0.254656 0.588997 0.000000
0.287175 0.588997 0.000000
0.319289 0.588997 0.000000
0.351047 0.588997 0.000000
0.382489 0.588997 0.000000
0.413645 0.588997 0.000000
0.444543 0.588997 0.000000
0.475204 0.588997 0.000000
0.505647 0.588997 0.000000
0.535887 0.588997 0.000000
0.594223 0.618446 0.049476
0.625604 0.618443 0.050048
0.656799 0.618427 0.052544
0.687830 0.618412 0.055026
0.718707 0.618396 0.057497
0.749436 0.618381 0.059955
0.780027 0.618366 0.062402
0.810484 0.618350 0.064839
0.840815 0.618335 0.067265
0.871024 0.618320 0.069682
0.901118 0.618305 0.072089
0.931100 0.618290 0.074488
0.960976 0.618275 0.076878
0.990749 0.618260 0.079260
1.000000 0.605872 0.080000
1.000000 0.588791 0.080000
0.000000 0.619035 0.000000
0.044194 0.619035 0.000000
0.082469 0.619035 0.000000
0.118788 0.619035 0.000000
0.153893 0.619035 0.000000
0.188121 0.619035 0.000000
0.221667 0.619035 0.000000
0.254656 0.619035 0.000000
0.287175 0.619035 0.000000
0.319289 0.619035 0.000000
0.351047 0.619035 0.000000
0.382489 0.619035 0.000000
0.413645 0.619035 0.000000
0.444543 0.619035 0.000000
0.475204 0.619035 0.000000
0.505647 0.619035 0.000000
0.535887 0.619035 0.000000
0.565938 0.619035 0.000000
0.625592 0.649987 0.051999
0.656799 0.649984 0.052544
0.687830 0.649968 0.055026
0.718707 0.649953 0.057497
0.749436 0.649937 0.059955
0.780027 0.649922 0.062402
0.810484 0.649907 0.064839
0.840815 0.649892 0.067265
0.871024 0.649876 0.069682
0.901118 0.649861 0.072089
0.931100 0.649846 0.074488
0.960976 0.649831 0.076878
0.990749 0.649817 0.079260
1.000000 0.636797 0.080000
1.000000 0.618845 0.080000
0.000000 0.648948 0.000000
0.044194 0.648948 0.000000
0.082469 0.648948 0.000000
0.118788 0.648948 0.000000
0.153893 0.648948 0.000000
0.188121 0.648948 0.000000
0.221667 0.648948 0.000000
0.254656 0.648948 0.000000
0.287175 0.648948 0.000000
0.319289 0.648948 0.000000
0.351047 0.648948 0.000000
0.382489 0.648948 0.000000
0.413645 0.648948 0.000000
0.444543 0.648948 0.000000
0.475204 0.648948 0.000000
0.505647 0.648948 0.000000
0.535887 0.648948 0.000000
0.565938 0.648948 0.000000
0.625576 0.681395 0.054512
0.656787 0.681395 0.054512
0.687830 0.681392 0.055026
0.718707 0.681376 0.057497
0.749436 0.681361 0.059955
0.780027 0.681346 0.062402
0.810484 0.681330 0.064839
0.840815 0.681315 0.067265
0.871024 0.681300 0.069682
0.901118 0.681285 0.072089
0.931100 0.681270 0.074488
0.960976 0.681255 0.076878
0.990749 0.681240 0.079260
1.000000 0.667592 0.080000
1.000000 0.648772 0.080000
0.000000 0.678741 0.000000
0.044194 0.678741 0.000000
0.082469 0.678741 0.000000
0.118788 0.678741 0.000000
0.153893 0.678741 0.000000
0.188121 0.678741 0.000000
0.221667 0.678741 0.000000
0.254656 0.678741 0.000000
0.287175 0.678741 0.000000
0.319289 0.678741 0.000000
0.351047 0.678741 0.000000
0.382489 0.678741 0.000000
0.413645 0.678741 0.000000
0.444543 0.678741 0.000000
0.475204 0.678741 0.000000
0.505647 0.678741 0.000000
0.535887 0.678741 0.000000
0.565938 0.678741 0.000000
0.595813 0.678741 0.000000
0.656771 0.712678 0.057014
0.687818 0.712678 0.057014
0.718707 0.712675 0.057497
0.749436 0.712659 0.059955
0.780027 0.712644 0.062402
0.810484 0.712629 0.064839
0.840815 0.712613 0.067265
0.871024 0.712598 0.069682
0.901118 0.712583 0.072089
0.931100 0.712568 0.074488
0.960976 0.712553 0.076878
0.990749 0.712539 0.079260
1.000000 0.698264 0.080000
1.000000 0.678580 0.080000
0.000000 0.708420 0.000000
0.044194 0.708420 0.000000
0.082469 0.708420 0.000000
0.118788 0.708420 0.000000
0.153893 0.708420 0.000000
0.188121 0.708420 0.000000
0.221667 0.708420 0.000000
0.254656 0.708420 0.000000
0.287175 0.708420 0.000000
0.319289 0.708420 0.000000
0.351047 0.708420 0.000000
0.382489 0.708420 0.000000
0.413645 0.708420 0.000000
0.444543 0.708420 0.000000
0.475204 0.708420 0.000000
0.505647 0.708420 0.000000
0.535887 0.708420 0.000000
0.565938 0.708420 0.000000
0.595813 0.708420 0.000000
0.625523 0.708420 0.000000
0.687802 0.743841 0.059507
0.718694 0.743841 0.059507
0.749436 0.743838 0.059955
0.780027 0.743823 0.062402
0.810484 0.743808 0.064839
0.840815 0.743793 0.067265
0.871024 0.743778 0.069682
0.901118 0.743762 0.072089
0.931100 0.743747 0.074488
0.960976 0.743733 0.076878
0.990749 0.743718 0.079260
1.000000 0.728819 0.080000
1.000000 0.708274 0.080000
0.000000 0.737992 0.000000
0.044194 0.737992 0.000000
0.082469 0.737992 0.000000
0.118788 0.737992 0.000000
0.153893 0.737992 0.000000
0.188121 0.737992 0.000000
0.221667 0.737992 0.000000
0.254656 0.737992 0.000000
0.287175 0.737992 0.000000
0.319289 0.737992 0.000000
0.351047 0.737992 0.000000
0.382489 0.737992 0.000000
0.413645 0.737992 0.000000
0.444543 0.737992 0.000000
0.475204 0.737992 0.000000
0.505647 0.737992 0.000000
0.535887 0.737992 0.000000
0.565938 0.737992 0.000000
0.595813 0.737992 0.000000
0.625523 0.737992 0.000000
0.655076 0.737992 0.000000
0.718679 0.774892 0.061991
0.749424 0.774892 0.061991
0.780027 0.774889 0.062402
0.810484 0.774874 0.064839
0.840815 0.774859 0.067265
0.871024 0.774843 0.069682
0.901118 0.774828 0.072089
0.931100 0.774813 0.074488
0.960976 0.774799 0.076878
0.990749 0.774784 0.079260
1.000000 0.759263 0.080000
1.000000 0.737861 0.080000
0.000000 0.767461 0.000000
0.044194 0.767461 0.000000
0.082469 0.767461 0.000000
0.118788 0.767461 0.000000
0.153893 0.767461 0.000000
0.188121 0.767461 0.000000
0.221667 0.767461 0.000000
0.254656 0.767461 0.000000
0.287175 0.767461 0.000000
0.319289 0.767461 0.000000
0.351047 0.767461 0.000000
0.382489 0.767461 0.000000
0.413645 0.767461 0.000000
0.444543 0.767461 0.000000
0.475204 0.767461 0.000000
0.505647 0.767461 0.000000
0.535887 0.767461 0.000000
0.565938 0.767461 0.000000
0.595813 0.767461 0.000000
0.625523 0.767461 0.000000
0.655076 0.767461 0.000000
0.684483 0.767461 0.000000
0.749408 0.805834 0.064467
0.780014 0.805834 0.064467
0.810484 0.805832 0.064839
0.840815 0.805817 0.067265
0.871024 0.805802 0.069682
0.901118 0.805786 0.072089
0.931100 0.805772 0.074488
0.960976 0.805757 0.076878
0.990749 0.805742 0.079260
1.000000 0.789602 0.080000
1.000000 0.767345 0.080000
0.000000 0.796832 0.000000
0.044194 0.796832 0.000000
0.082469 0.796832 0.000000
0.118788 0.796832 0.000000
0.153893 0.796832 0.000000
0.188121 0.796832 0.000000
0.221667 0.796832 0.000000
0.254656 0.796832 0.000000
0.287175 0.796832 0.000000
0.319289 0.796832 0.000000
0.351047 0.796832 0.000000
0.382489 0.796832 0.000000
0.413645 0.796832 0.000000
0.444543 0.796832 0.000000
0.475204 0.796832 0.000000
0.505647 0.796832 0.000000
0.535887 0.796832 0.000000
0.565938 0.796832 0.000000
0.595813 0.796832 0.000000
0.625523 0.796832 0.000000
0.655076 0.796832 0.000000
0.684483 0.796832 0.000000
0.713749 0.796832 0.000000
0.779998 0.836674 0.066934
0.810471 0.836674 0.066934
0.840815 0.836672 0.067265
0.871024 0.836657 0.069682
0.901118 0.836641 0.072089
0.931100 0.836627 0.074488
0.960976 0.836612 0.076878
0.990749 0.836597 0.079260
1.000000 0.819839 0.080000
1.000000 0.796731 0.080000
0.000000 0.826109 0.000000
0.044194 0.826109 0.000000
0.082469 0.826109 0.000000
0.118788 0.826109 0.000000
0.153893 0.826109 0.000000
0.188121 0.826109 0.000000
0.221667 0.826109 0.000000
0.254656 0.826109 0.000000
0.287175 0.826109 0.000000
0.319289 0.826109 0.000000
0.351047 0.826109 0.000000
0.382489 0.826109 0.000000
0.413645 0.826109 0.000000
0.444543 0.826109 0.000000
0.475204 0.826109 0.000000
0.505647 0.826109 0.000000
0.535887 0.826109 0.000000
0.565938 0.826109 0.000000
0.595813 0.826109 0.000000
0.625523 0.826109 0.000000
0.655076 0.826109 0.000000
0.684483 0.826109 0.000000
0.713749 0.826109 0.000000
0.742882 0.826109 0.000000
0.810456 0.867415 0.069393
0.840801 0.867415 0.069393
