luts/clean_bright.cube
# Generated by OpenMontage LUT Generator
TITLE "Clean & Bright"
LUT_3D_SIZE 5
DOMAIN_MIN 0.0 0.0 0.0
DOMAIN_MAX 1.0 1.0 1.0
0.000000 0.000000 0.000000
0.287175 0.000000 0.000000
0.535887 0.000000 0.000000
0.771890 0.000000 0.000000
1.000000 0.000000 0.000000
0.000000 0.279322 0.000000
0.301533 0.293284 0.024123
0.562681 0.293153 0.045014
0.810484 0.293029 0.064839
1.000000 0.279322 0.000000
0.000000 0.528509 0.000000
0.287175 0.528509 0.000000
0.562681 0.554931 0.045014
0.810484 0.554807 0.064839
1.000000 0.528273 0.080000
0.000000 0.767461 0.000000
0.287175 0.767461 0.000000
0.535887 0.767461 0.000000
0.810484 0.805832 0.064839
1.000000 0.767345 0.080000
0.000000 1.000000 0.000000
0.287175 1.000000 0.000000
0.535887 1.000000 0.000000
0.771890 1.000000 0.000000
1.000000 1.000000 0.080000
0.000000 0.000000 0.295248
0.287175 0.000000 0.295248
0.535887 0.000000 0.295248
0.771890 0.000000 0.295248
1.000000 0.000000 0.295248
0.000000 0.279322 0.295248
0.287175 0.279322 0.295248
0.535887 0.279322 0.295248
0.771890 0.279322 0.295248
1.000000 0.279322 0.295248
0.000000 0.528509 0.295248
0.287175 0.528509 0.295248
0.562681 0.554931 0.330224
0.810484 0.554807 0.350048
1.000000 0.528509 0.295248
0.000000 0.767461 0.295248
0.287175 0.767461 0.295248
0.535887 0.767461 0.295248
0.810484 0.805832 0.350048
1.000000 0.767345 0.351628
0.000000 1.000000 0.295248
0.287175 1.000000 0.295248
0.535887 1.000000 0.295248
0.771890 1.000000 0.295248
1.000000 1.000000 0.351628
0.000000 0.000000 0.543367
0.287175 0.000000 0.543367
0.535887 0.000000 0.543367
0.771890 0.000000 0.543367
1.000000 0.000000 0.543367
0.000000 0.279322 0.543367
0.287175 0.279322 0.543367
0.535887 0.279322 0.543367
0.771890 0.279322 0.543367
1.000000 0.279322 0.543367
0.000000 0.528509 0.543367
0.287175 0.528509 0.543367
0.535887 0.528509 0.543367
0.771890 0.528509 0.543367
1.000000 0.528509 0.543367
0.000000 0.767461 0.543367
0.287175 0.767461 0.543367
0.535887 0.767461 0.543367
0.810484 0.805832 0.589732
1.000000 0.767345 0.579898
0.000000 1.000000 0.543367
0.287175 1.000000 0.543367
0.535887 1.000000 0.543367
0.771890 1.000000 0.543367
1.000000 1.000000 0.579898
0.000000 0.000000 0.776343
0.287175 0.000000 0.776343
0.535887 0.000000 0.776343
0.771890 0.000000 0.776343
1.000000 0.000000 0.776343
0.000000 0.279322 0.776343
0.287175 0.279322 0.776343
0.535887 0.279322 0.776343
0.771890 0.279322 0.776343
1.000000 0.279322 0.776343
0.000000 0.528509 0.776343
0.287175 0.528509 0.776343
0.535887 0.528509 0.776343
0.771890 0.528509 0.776343
1.000000 0.528509 0.776343
0.000000 0.767461 0.776343
0.287175 0.767461 0.776343
0.535887 0.767461 0.776343
0.771890 0.767461 0.776343
1.000000 0.767461 0.776343
0.000000 1.000000 0.776343
0.287175 1.000000 0.776343
0.535887 1.000000 0.776343
0.771890 1.000000 0.776343
1.000000 1.000000 0.794236
0.000000 0.000000 1.000000
0.287175 0.000000 1.000000
0.535887 0.000000 1.000000
0.771890 0.000000 1.000000
1.000000 0.000000 1.000000
0.000000 0.279322 1.000000
0.287175 0.279322 1.000000
0.535887 0.279322 1.000000
0.771890 0.279322 1.000000
1.000000 0.279322 1.000000
0.000000 0.528509 1.000000
0.287175 0.528509 1.000000
0.535887 0.528509 1.000000
0.771890 0.528509 1.000000
1.000000 0.528509 1.000000
0.000000 0.767461 1.000000
0.287175 0.767461 1.000000
0.535887 0.767461 1.000000
0.771890 0.767461 1.000000
1.000000 0.767461 1.000000
0.000000 1.000000 1.000000
0.287175 1.000000 1.000000
0.535887 1.000000 1.000000
0.771890 1.000000 1.000000
1.000000 1.000000 1.000000
