luts/clean_bright.cube
# Generated by OpenMontage LUT Generator
TITLE "Clean & Bright"
LUT_3D_SIZE 9
DOMAIN_MIN 0.0 0.0 0.0
DOMAIN_MAX 1.0 1.0 1.0
0.000000 0.000000 0.000000
0.153893 0.000000 0.000000
0.287175 0.000000 0.000000
0.413645 0.000000 0.000000
0.535887 0.000000 0.000000
0.655076 0.000000 0.000000
0.771890 0.000000 0.000000
0.886762 0.000000 0.000000
1.000000 0.000000 0.000000
0.000000 0.147624 0.000000
0.161588 0.155002 0.012927
0.301533 0.154932 0.024123
0.434328 0.154866 0.034746
0.535887 0.147624 0.000000
0.655076 0.147624 0.000000
0.771890 0.147624 0.000000
0.886762 0.147624 0.000000
1.000000 0.147624 0.000000
0.000000 0.279322 0.000000
0.153893 0.279322 0.000000
0.301533 0.293284 0.024123
0.434328 0.293217 0.034746
0.562681 0.293153 0.045014
0.687830 0.293091 0.055026
0.810484 0.293029 0.064839
0.886762 0.279322 0.000000
1.000000 0.279322 0.000000
0.000000 0.405610 0.000000
0.153893 0.405610 0.000000
0.287175 0.405610 0.000000
0.434328 0.425886 0.034746
0.562681 0.425822 0.045014
0.687830 0.425760 0.055026
0.810484 0.425698 0.064839
0.931100 0.425638 0.074488
1.000000 0.405313 0.080000
0.000000 0.528509 0.000000
0.153893 0.528509 0.000000
0.287175 0.528509 0.000000
0.413645 0.528509 0.000000
0.562681 0.554931 0.045014
0.687830 0.554868 0.055026
0.810484 0.554807 0.064839
0.931100 0.554746 0.074488
1.000000 0.528273 0.080000
0.000000 0.648948 0.000000
0.153893 0.648948 0.000000
0.287175 0.648948 0.000000
0.413645 0.648948 0.000000
0.535887 0.648948 0.000000
0.687830 0.681392 0.055026
0.810484 0.681330 0.064839
0.931100 0.681270 0.074488
1.000000 0.648772 0.080000
0.000000 0.767461 0.000000
0.153893 0.767461 0.000000
0.287175 0.767461 0.000000
0.413645 0.767461 0.000000
0.535887 0.767461 0.000000
0.655076 0.767461 0.000000
0.810484 0.805832 0.064839
0.931100 0.805772 0.074488
1.000000 0.767345 0.080000
0.000000 0.884397 0.000000
0.153893 0.884397 0.000000
0.287175 0.884397 0.000000
0.413645 0.884397 0.000000
0.535887 0.884397 0.000000
0.655076 0.884397 0.000000
0.771890 0.884397 0.000000
0.931100 0.928616 0.074488
1.000000 0.884340 0.080000
0.000000 1.000000 0.000000
0.153893 1.000000 0.000000
0.287175 1.000000 0.000000
0.413645 1.000000 0.000000
0.535887 1.000000 0.000000
0.655076 1.000000 0.000000
0.771890 1.000000 0.000000
0.886762 1.000000 0.000000
1.000000 1.000000 0.080000
0.000000 0.000000 0.160428
0.153893 0.000000 0.160428
0.287175 0.000000 0.160428
0.413645 0.000000 0.160428
0.535887 0.000000 0.160428
0.655076 0.000000 0.160428
0.771890 0.000000 0.160428
0.886762 0.000000 0.160428
1.000000 0.000000 0.160428
0.000000 0.147624 0.160428
0.153893 0.147624 0.160428
0.287175 0.147624 0.160428
0.413645 0.147624 0.160428
0.535887 0.147624 0.160428
0.655076 0.147624 0.160428
0.771890 0.147624 0.160428
0.886762 0.147624 0.160428
1.000000 0.147624 0.160428
0.000000 0.279322 0.160428
0.153893 0.279322 0.160428
0.301533 0.293284 0.179096
0.434328 0.293217 0.189720
0.535887 0.279322 0.160428
0.655076 0.279322 0.160428
0.771890 0.279322 0.160428
0.886762 0.279322 0.160428
1.000000 0.279322 0.160428
0.000000 0.405610 0.160428
0.153893 0.405610 0.160428
0.287175 0.405610 0.160428
0.434328 0.425886 0.189720
0.562681 0.425822 0.199988
0.687830 0.425760 0.210000
0.810484 0.425698 0.219812
0.931100 0.439953 0.229462
1.000000 0.405610 0.160428
0.000000 0.528509 0.160428
0.153893 0.528509 0.160428
0.287175 0.528509 0.160428
0.413645 0.528509 0.160428
0.562681 0.554931 0.199988
0.687830 0.554868 0.210000
0.810484 0.554807 0.219812
0.931100 0.554746 0.229462
1.000000 0.528273 0.227594
0.000000 0.648948 0.160428
0.153893 0.648948 0.160428
0.287175 0.648948 0.160428
0.413645 0.648948 0.160428
0.535887 0.648948 0.160428
0.687830 0.681392 0.210000
0.810484 0.681330 0.219812
0.931100 0.681270 0.229462
1.000000 0.648772 0.227594
0.000000 0.767461 0.160428
0.153893 0.767461 0.160428
0.287175 0.767461 0.160428
0.413645 0.767461 0.160428
0.535887 0.767461 0.160428
0.655076 0.767461 0.160428
0.810484 0.805832 0.219812
0.931100 0.805772 0.229462
1.000000 0.767345 0.227594
0.000000 0.884397 0.160428
0.153893 0.884397 0.160428
0.287175 0.884397 0.160428
0.413645 0.884397 0.160428
0.535887 0.884397 0.160428
0.655076 0.884397 0.160428
0.771890 0.884397 0.160428
0.931100 0.928616 0.229462
1.000000 0.884340 0.227594
0.000000 1.000000 0.160428
0.153893 1.000000 0.160428
0.287175 1.000000 0.160428
0.413645 1.000000 0.160428
0.535887 1.000000 0.160428
0.655076 1.000000 0.160428
0.771890 1.000000 0.160428
0.886762 1.000000 0.160428
1.000000 1.000000 0.227594
0.000000 0.000000 0.295248
0.153893 0.000000 0.295248
0.287175 0.000000 0.295248
0.413645 0.000000 0.295248
0.535887 0.000000 0.295248
0.655076 0.000000 0.295248
0.771890 0.000000 0.295248
0.886762 0.000000 0.295248
1.000000 0.000000 0.295248
0.000000 0.147624 0.295248
0.153893 0.147624 0.295248
0.287175 0.147624 0.295248
0.413645 0.147624 0.295248
0.535887 0.147624 0.295248
0.655076 0.147624 0.295248
0.771890 0.147624 0.295248
0.886762 0.147624 0.295248
1.000000 0.147624 0.295248
0.000000 0.279322 0.295248
0.153893 0.279322 0.295248
0.287175 0.279322 0.295248
0.413645 0.279322 0.295248
0.535887 0.279322 0.295248
0.655076 0.279322 0.295248
0.771890 0.279322 0.295248
0.886762 0.279322 0.295248
1.000000 0.279322 0.295248
0.000000 0.405610 0.295248
0.153893 0.405610 0.295248
0.287175 0.405610 0.295248
0.434328 0.425886 0.319956
0.562681 0.425822 0.330224
0.655076 0.405610 0.295248
0.771890 0.405610 0.295248
0.886762 0.405610 0.295248
1.000000 0.405610 0.295248
0.000000 0.528509 0.295248
0.153893 0.528509 0.295248
0.287175 0.528509 0.295248
0.413645 0.528509 0.295248
0.562681 0.554931 0.330224
0.687830 0.554868 0.340236
0.810484 0.554807 0.350048
0.931100 0.554746 0.359698
1.000000 0.528509 0.295248
0.000000 0.648948 0.295248
0.153893 0.648948 0.295248
0.287175 0.648948 0.295248
0.413645 0.648948 0.295248
0.535887 0.648948 0.295248
0.687830 0.681392 0.340236
0.810484 0.681330 0.350048
0.931100 0.681270 0.359698
1.000000 0.648772 0.351628
0.000000 0.767461 0.295248
0.153893 0.767461 0.295248
0.287175 0.767461 0.295248
0.413645 0.767461 0.295248
0.535887 0.767461 0.295248
0.655076 0.767461 0.295248
0.810484 0.805832 0.350048
0.931100 0.805772 0.359698
1.000000 0.767345 0.351628
0.000000 0.884397 0.295248
0.153893 0.884397 0.295248
0.287175 0.884397 0.295248
0.413645 0.884397 0.295248
0.535887 0.884397 0.295248
0.655076 0.884397 0.295248
0.771890 0.884397 0.295248
0.931100 0.928616 0.359698
1.000000 0.884340 0.351628
0.000000 1.000000 0.295248
0.153893 1.000000 0.295248
0.287175 1.000000 0.295248
0.413645 1.000000 0.295248
0.535887 1.000000 0.295248
0.655076 1.000000 0.295248
0.771890 1.000000 0.295248
0.886762 1.000000 0.295248
1.000000 1.000000 0.351628
0.000000 0.000000 0.421840
0.153893 0.000000 0.421840
0.287175 0.000000 0.421840
0.413645 0.000000 0.421840
0.535887 0.000000 0.421840
0.655076 0.000000 0.421840
0.771890 0.000000 0.421840
0.886762 0.000000 0.421840
1.000000 0.000000 0.421840
0.000000 0.147624 0.421840
0.153893 0.147624 0.421840
0.287175 0.147624 0.421840
0.413645 0.147624 0.421840
0.535887 0.147624 0.421840
0.655076 0.147624 0.421840
0.771890 0.147624 0.421840
0.886762 0.147624 0.421840
1.000000 0.147624 0.421840
0.000000 0.279322 0.421840
0.153893 0.279322 0.421840
0.287175 0.279322 0.421840
0.413645 0.279322 0.421840
0.535887 0.279322 0.421840
0.655076 0.279322 0.421840
0.771890 0.279322 0.421840
0.886762 0.279322 0.421840
1.000000 0.279322 0.421840
0.000000 0.405610 0.421840
0.153893 0.405610 0.421840
0.287175 0.405610 0.421840
0.413645 0.405610 0.421840
0.535887 0.405610 0.421840
0.655076 0.405610 0.421840
0.771890 0.405610 0.421840
0.886762 0.405610 0.421840
1.000000 0.405610 0.421840
0.000000 0.528509 0.421840
0.153893 0.528509 0.421840
0.287175 0.528509 0.421840
0.413645 0.528509 0.421840
0.562681 0.554931 0.452512
0.687830 0.554868 0.462524
0.771890 0.528509 0.421840
0.886762 0.528509 0.421840
1.000000 0.528509 0.421840
0.000000 0.648948 0.421840
0.153893 0.648948 0.421840
0.287175 0.648948 0.421840
0.413645 0.648948 0.421840
0.535887 0.648948 0.421840
0.687830 0.681392 0.462524
0.810484 0.681330 0.472336
0.931100 0.681270 0.481985
1.000000 0.648772 0.468093
0.000000 0.767461 0.421840
0.153893 0.767461 0.421840
0.287175 0.767461 0.421840
0.413645 0.767461 0.421840
0.535887 0.767461 0.421840
0.655076 0.767461 0.421840
0.810484 0.805832 0.472336
0.931100 0.805772 0.481985
1.000000 0.767345 0.468093
0.000000 0.884397 0.421840
0.153893 0.884397 0.421840
0.287175 0.884397 0.421840
0.413645 0.884397 0.421840
0.535887 0.884397 0.421840
0.655076 0.884397 0.421840
0.771890 0.884397 0.421840
0.931100 0.928616 0.481985
1.000000 0.884340 0.468093
0.000000 1.000000 0.421840
0.153893 1.000000 0.421840
0.287175 1.000000 0.421840
0.413645 1.000000 0.421840
0.535887 1.000000 0.421840
0.655076 1.000000 0.421840
0.771890 1.000000 0.421840
0.886762 1.000000 0.421840
1.000000 1.000000 0.468093
0.000000 0.000000 0.543367
0.153893 0.000000 0.543367
0.287175 0.000000 0.543367
0.413645 0.000000 0.543367
0.535887 0.000000 0.543367
0.655076 0.000000 0.543367
0.771890 0.000000 0.543367
0.886762 0.000000 0.543367
1.000000 0.000000 0.543367
0.000000 0.147624 0.543367
0.153893 0.147624 0.543367
0.287175 0.147624 0.543367
0.413645 0.147624 0.543367
0.535887 0.147624 0.543367
0.655076 0.147624 0.543367
0.771890 0.147624 0.543367
0.886762 0.147624 0.543367
1.000000 0.147624 0.543367
0.000000 0.279322 0.543367
0.153893 0.279322 0.543367
0.287175 0.279322 0.543367
0.413645 0.279322 0.543367
0.535887 0.279322 0.543367
0.655076 0.279322 0.543367
0.771890 0.279322 0.543367
0.886762 0.279322 0.543367
1.000000 0.279322 0.543367
0.000000 0.405610 0.543367
0.153893 0.405610 0.543367
0.287175 0.405610 0.543367
0.413645 0.405610 0.543367
0.535887 0.405610 0.543367
0.655076 0.405610 0.543367
0.771890 0.405610 0.543367
0.886762 0.405610 0.543367
1.000000 0.405610 0.543367
0.000000 0.528509 0.543367
0.153893 0.528509 0.543367
0.287175 0.528509 0.543367
0.413645 0.528509 0.543367
0.535887 0.528509 0.543367
0.655076 0.528509 0.543367
0.771890 0.528509 0.543367
0.886762 0.528509 0.543367
1.000000 0.528509 0.543367
0.000000 0.648948 0.543367
0.153893 0.648948 0.543367
0.287175 0.648948 0.543367
0.413645 0.648948 0.543367
0.535887 0.648948 0.543367
0.687830 0.681392 0.579919
0.810484 0.681330 0.589732
0.886762 0.648948 0.543367
1.000000 0.648948 0.543367
0.000000 0.767461 0.543367
0.153893 0.767461 0.543367
0.287175 0.767461 0.543367
0.413645 0.767461 0.543367
0.535887 0.767461 0.543367
0.655076 0.767461 0.543367
0.810484 0.805832 0.589732
0.931100 0.805772 0.599381
1.000000 0.767345 0.579898
0.000000 0.884397 0.543367
0.153893 0.884397 0.543367
0.287175 0.884397 0.543367
0.413645 0.884397 0.543367
0.535887 0.884397 0.543367
0.655076 0.884397 0.543367
0.771890 0.884397 0.543367
0.931100 0.928616 0.599381
1.000000 0.884340 0.579898
0.000000 1.000000 0.543367
0.153893 1.000000 0.543367
0.287175 1.000000 0.543367
0.413645 1.000000 0.543367
0.535887 1.000000 0.543367
0.655076 1.000000 0.543367
0.771890 1.000000 0.543367
0.886762 1.000000 0.543367
1.000000 1.000000 0.579898
0.000000 0.000000 0.661263
0.153893 0.000000 0.661263
0.287175 0.000000 0.661263
0.413645 0.000000 0.661263
0.535887 0.000000 0.661263
0.655076 0.000000 0.661263
0.771890 0.000000 0.661263
0.886762 0.000000 0.661263
1.000000 0.000000 0.661263
0.000000 0.147624 0.661263
0.153893 0.147624 0.661263
0.287175 0.147624 0.661263
0.413645 0.147624 0.661263
0.535887 0.147624 0.661263
0.655076 0.147624 0.661263
0.771890 0.147624 0.661263
0.886762 0.147624 0.661263
1.000000 0.147624 0.661263
0.000000 0.279322 0.661263
0.153893 0.279322 0.661263
0.287175 0.279322 0.661263
0.413645 0.279322 0.661263
0.535887 0.279322 0.661263
0.655076 0.279322 0.661263
0.771890 0.279322 0.661263
0.886762 0.279322 0.661263
1.000000 0.279322 0.661263
0.000000 0.405610 0.661263
0.153893 0.405610 0.661263
0.287175 0.405610 0.661263
0.413645 0.405610 0.661263
0.535887 0.405610 0.661263
0.655076 0.405610 0.661263
0.771890 0.405610 0.661263
0.886762 0.405610 0.661263
1.000000 0.405610 0.661263
0.000000 0.528509 0.661263
0.153893 0.528509 0.661263
0.287175 0.528509 0.661263
0.413645 0.528509 0.661263
0.535887 0.528509 0.661263
0.655076 0.528509 0.661263
0.771890 0.528509 0.661263
0.886762 0.528509 0.661263
1.000000 0.528509 0.661263
0.000000 0.648948 0.661263
0.153893 0.648948 0.661263
0.287175 0.648948 0.661263
0.413645 0.648948 0.661263
0.535887 0.648948 0.661263
0.655076 0.648948 0.661263
0.771890 0.648948 0.661263
0.886762 0.648948 0.661263
1.000000 0.648948 0.661263
0.000000 0.767461 0.661263
0.153893 0.767461 0.661263
0.287175 0.767461 0.661263
0.413645 0.767461 0.661263
0.535887 0.767461 0.661263
0.655076 0.767461 0.661263
0.810484 0.805832 0.703619
0.931100 0.805772 0.713268
1.000000 0.767461 0.661263
0.000000 0.884397 0.661263
0.153893 0.884397 0.661263
0.287175 0.884397 0.661263
0.413645 0.884397 0.661263
0.535887 0.884397 0.661263
0.655076 0.884397 0.661263
0.771890 0.884397 0.661263
0.931100 0.928616 0.713268
1.000000 0.884340 0.688362
0.000000 1.000000 0.661263
0.153893 1.000000 0.661263
0.287175 1.000000 0.661263
0.413645 1.000000 0.661263
0.535887 1.000000 0.661263
0.655076 1.000000 0.661263
0.771890 1.000000 0.661263
0.886762 1.000000 0.661263
1.000000 1.000000 0.688362
0.000000 0.000000 0.776343
0.153893 0.000000 0.776343
0.287175 0.000000 0.776343
0.413645 0.000000 0.776343
0.535887 0.000000 0.776343
0.655076 0.000000 0.776343
0.771890 0.000000 0.776343
0.886762 0.000000 0.776343
1.000000 0.000000 0.776343
0.000000 0.147624 0.776343
0.153893 0.147624 0.776343
0.287175 0.147624 0.776343
0.413645 0.147624 0.776343
0.535887 0.147624 0.776343
0.655076 0.147624 0.776343
0.771890 0.147624 0.776343
0.886762 0.147624 0.776343
1.000000 0.147624 0.776343
0.000000 0.279322 0.776343
0.153893 0.279322 0.776343
0.287175 0.279322 0.776343
0.413645 0.279322 0.776343
0.535887 0.279322 0.776343
0.655076 0.279322 0.776343
0.771890 0.279322 0.776343
0.886762 0.279322 0.776343
1.000000 0.279322 0.776343
0.000000 0.405610 0.776343
0.153893 0.405610 0.776343
0.287175 0.405610 0.776343
0.413645 0.405610 0.776343
0.535887 0.405610 0.776343
0.655076 0.405610 0.776343
0.771890 0.405610 0.776343
0.886762 0.405610 0.776343
1.000000 0.405610 0.776343
0.000000 0.528509 0.776343
0.153893 0.528509 0.776343
0.287175 0.528509 0.776343
0.413645 0.528509 0.776343
0.535887 0.528509 0.776343
0.655076 0.528509 0.776343
0.771890 0.528509 0.776343
0.886762 0.528509 0.776343
1.000000 0.528509 0.776343
0.000000 0.648948 0.776343
0.153893 0.648948 0.776343
0.287175 0.648948 0.776343
0.413645 0.648948 0.776343
0.535887 0.648948 0.776343
0.655076 0.648948 0.776343
0.771890 0.648948 0.776343
0.886762 0.648948 0.776343
1.000000 0.648948 0.776343
0.000000 0.767461 0.776343
0.153893 0.767461 0.776343
0.287175 0.767461 0.776343
0.413645 0.767461 0.776343
0.535887 0.767461 0.776343
0.655076 0.767461 0.776343
0.771890 0.767461 0.776343
0.886762 0.767461 0.776343
1.000000 0.767461 0.776343
0.000000 0.884397 0.776343
0.153893 0.884397 0.776343
0.287175 0.884397 0.776343
0.413645 0.884397 0.776343
0.535887 0.884397 0.776343
0.655076 0.884397 0.776343
0.771890 0.884397 0.776343
0.931100 0.928616 0.824436
1.000000 0.884340 0.794236
0.000000 1.000000 0.776343
0.153893 1.000000 0.776343
0.287175 1.000000 0.776343
0.413645 1.000000 0.776343
0.535887 1.000000 0.776343
0.655076 1.000000 0.776343
0.771890 1.000000 0.776343
0.886762 1.000000 0.776343
1.000000 1.000000 0.794236
0.000000 0.000000 0.889134
0.153893 0.000000 0.889134
0.287175 0.000000 0.889134
0.413645 0.000000 0.889134
0.535887 0.000000 0.889134
0.655076 0.000000 0.889134
0.771890 0.000000 0.889134
0.886762 0.000000 0.889134
1.000000 0.000000 0.889134
0.000000 0.147624 0.889134
0.153893 0.147624 0.889134
0.287175 0.147624 0.889134
0.413645 0.147624 0.889134
0.535887 0.147624 0.889134
0.655076 0.147624 0.889134
0.771890 0.147624 0.889134
0.886762 0.147624 0.889134
1.000000 0.147624 0.889134
0.000000 0.279322 0.889134
0.153893 0.279322 0.889134
0.287175 0.279322 0.889134
0.413645 0.279322 0.889134
0.535887 0.279322 0.889134
0.655076 0.279322 0.889134
0.771890 0.279322 0.889134
0.886762 0.279322 0.889134
1.000000 0.279322 0.889134
0.000000 0.405610 0.889134
0.153893 0.405610 0.889134
0.287175 0.405610 0.889134
0.413645 0.405610 0.889134
0.535887 0.405610 0.889134
0.655076 0.405610 0.889134
0.771890 0.405610 0.889134
0.886762 0.405610 0.889134
1.000000 0.405610 0.889134
0.000000 0.528509 0.889134
0.153893 0.528509 0.889134
0.287175 0.528509 0.889134
0.413645 0.528509 0.889134
0.535887 0.528509 0.889134
0.655076 0.528509 0.889134
0.771890 0.528509 0.889134
0.886762 0.528509 0.889134
1.000000 0.528509 0.889134
0.000000 0.648948 0.889134
0.153893 0.648948 0.889134
0.287175 0.648948 0.889134
0.413645 0.648948 0.889134
0.535887 0.648948 0.889134
0.655076 0.648948 0.889134
0.771890 0.648948 0.889134
0.886762 0.648948 0.889134
1.000000 0.648948 0.889134
0.000000 0.767461 0.889134
0.153893 0.767461 0.889134
0.287175 0.767461 0.889134
0.413645 0.767461 0.889134
0.535887 0.767461 0.889134
0.655076 0.767461 0.889134
0.771890 0.767461 0.889134
0.886762 0.767461 0.889134
1.000000 0.767461 0.889134
0.000000 0.884397 0.889134
0.153893 0.884397 0.889134
0.287175 0.884397 0.889134
0.413645 0.884397 0.889134
0.535887 0.884397 0.889134
0.655076 0.884397 0.889134
0.771890 0.884397 0.889134
0.886762 0.884397 0.889134
1.000000 0.884397 0.889134
0.000000 1.000000 0.889134
0.153893 1.000000 0.889134
0.287175 1.000000 0.889134
0.413645 1.000000 0.889134
0.535887 1.000000 0.889134
0.655076 1.000000 0.889134
0.771890 1.000000 0.889134
0.886762 1.000000 0.889134
1.000000 1.000000 0.898003
0.000000 0.000000 1.000000
0.153893 0.000000 1.000000
0.287175 0.000000 1.000000
0.413645 0.000000 1.000000
0.535887 0.000000 1.000000
0.655076 0.000000 1.000000
0.771890 0.000000 1.000000
0.886762 0.000000 1.000000
1.000000 0.000000 1.000000
0.000000 0.147624 1.000000
0.153893 0.147624 1.000000
0.287175 0.147624 1.000000
0.413645 0.147624 1.000000
0.535887 0.147624 1.000000
0.655076 0.147624 1.000000
0.771890 0.147624 1.000000
0.886762 0.147624 1.000000
1.000000 0.147624 1.000000
0.000000 0.279322 1.000000
0.153893 0.279322 1.000000
0.287175 0.279322 1.000000
0.413645 0.279322 1.000000
0.535887 0.279322 1.000000
0.655076 0.279322 1.000000
0.771890 0.279322 1.000000
0.886762 0.279322 1.000000
1.000000 0.279322 1.000000
0.000000 0.405610 1.000000
0.153893 0.405610 1.000000
0.287175 0.405610 1.000000
0.413645 0.405610 1.000000
0.535887 0.405610 1.000000
0.655076 0.405610 1.000000
0.771890 0.405610 1.000000
0.886762 0.405610 1.000000
1.000000 0.405610 1.000000
0.000000 0.528509 1.000000
0.153893 0.528509 1.000000
0.287175 0.528509 1.000000
0.413645 0.528509 1.000000
0.535887 0.528509 1.000000
0.655076 0.528509 1.000000
0.771890 0.528509 1.000000
0.886762 0.528509 1.000000
1.000000 0.528509 1.000000
0.000000 0.648948 1.000000
0.153893 0.648948 1.000000
0.287175 0.648948 1.000000
0.413645 0.648948 1.000000
0.535887 0.648948 1.000000
0.655076 0.648948 1.000000
0.771890 0.648948 1.000000
0.886762 0.648948 1.000000
1.000000 0.648948 1.000000
0.000000 0.767461 1.000000
0.153893 0.767461 1.000000
0.287175 0.767461 1.000000
0.413645 0.767461 1.000000
0.535887 0.767461 1.000000
0.655076 0.767461 1.000000
0.771890 0.767461 1.000000
0.886762 0.767461 1.000000
1.000000 0.767461 1.000000
0.000000 0.884397 1.000000
0.153893 0.884397 1.000000
0.287175 0.884397 1.000000
0.413645 0.884397 1.000000
0.535887 0.884397 1.000000
0.655076 0.884397 1.000000
0.771890 0.884397 1.000000
0.886762 0.884397 1.000000
1.000000 0.884397 1.000000
0.000000 1.000000 1.000000
0.153893 1.000000 1.000000
0.287175 1.000000 1.000000
0.413645 1.000000 1.000000
0.535887 1.000000 1.000000
0.655076 1.000000 1.000000
0.771890 1.000000 1.000000
0.886762 1.000000 1.000000
1.000000 1.000000 1.000000
