luts/warm_studio.cube
# Generated by OpenMontage LUT Generator
TITLE "Warm Studio"
LUT_3D_SIZE 9
DOMAIN_MIN 0.0 0.0 0.0
DOMAIN_MAX 1.0 1.0 1.0
0.000000 0.000000 0.000000
0.150577 0.000000 0.000000
0.284908 0.000000 0.000000
0.413722 0.000000 0.000000
0.539079 0.000000 0.000000
0.661927 0.000000 0.000000
0.782810 0.000000 0.000000
0.902085 0.000000 0.000000
1.000000 0.000000 0.000000
0.000000 0.138696 0.000000
0.150577 0.138696 0.000000
0.293455 0.142857 0.000000
0.426134 0.142857 0.000000
0.555252 0.142857 0.000000
0.661927 0.138696 0.000000
0.782810 0.138696 0.000000
0.902085 0.138696 0.000000
1.000000 0.138696 0.000000
0.000000 0.267943 0.000000
0.150577 0.267943 0.000000
0.284908 0.267943 0.000000
0.426134 0.275982 0.000000
0.555252 0.275982 0.000000
0.681784 0.275982 0.000000
0.806295 0.275982 0.000000
0.929148 0.275982 0.000000
1.000000 0.262690 0.000000
0.000000 0.393849 0.000000
0.150577 0.393849 0.000000
0.284908 0.393849 0.000000
0.413722 0.393849 0.000000
0.555252 0.405664 0.000000
0.681784 0.405664 0.000000
0.806295 0.405664 0.000000
0.929148 0.405664 0.000000
1.000000 0.386126 0.000000
0.000000 0.517632 0.000000
0.150577 0.517632 0.000000
0.284908 0.517632 0.000000
0.413722 0.517632 0.000000
0.539079 0.517632 0.000000
0.681784 0.533161 0.000000
0.806295 0.533161 0.000000
0.929148 0.533161 0.000000
1.000000 0.507483 0.000000
0.000000 0.639862 0.000000
0.150577 0.639862 0.000000
0.284908 0.639862 0.000000
0.413722 0.639862 0.000000
0.539079 0.639862 0.000000
0.661927 0.639862 0.000000
0.806295 0.659057 0.000000
0.929148 0.659057 0.000000
1.000000 0.627315 0.000000
0.000000 0.760866 0.000000
0.150577 0.760866 0.000000
0.284908 0.760866 0.000000
0.413722 0.760866 0.000000
0.539079 0.760866 0.000000
0.661927 0.760866 0.000000
0.782810 0.760866 0.000000
0.929148 0.783692 0.000000
1.000000 0.745947 0.000000
0.000000 0.880862 0.000000
0.150577 0.880862 0.000000
0.284908 0.880862 0.000000
0.413722 0.880862 0.000000
0.539079 0.880862 0.000000
0.661927 0.880862 0.000000
0.782810 0.880862 0.000000
0.902085 0.880862 0.000000
1.000000 0.863590 0.000000
0.000000 1.000000 0.000000
0.150577 1.000000 0.000000
0.284908 1.000000 0.000000
0.413722 1.000000 0.000000
0.539079 1.000000 0.000000
0.661927 1.000000 0.000000
0.782810 1.000000 0.000000
0.902085 1.000000 0.000000
1.000000 1.000000 0.000000
0.000000 0.000000 0.125096
0.150577 0.000000 0.125096
0.284908 0.000000 0.125096
0.413722 0.000000 0.125096
0.539079 0.000000 0.125096
0.661927 0.000000 0.125096
0.782810 0.000000 0.125096
0.902085 0.000000 0.125096
1.000000 0.000000 0.125096
0.000000 0.138696 0.125096
0.155094 0.142245 0.127537
0.284908 0.138696 0.125096
0.413722 0.138696 0.125096
0.539079 0.138696 0.125096
0.661927 0.138696 0.125096
0.782810 0.138696 0.125096
0.902085 0.138696 0.125096
1.000000 0.138696 0.125096
0.000000 0.267943 0.125096
0.150577 0.267943 0.125096
0.293455 0.275108 0.120618
0.426134 0.268474 0.113985
0.555252 0.262018 0.107529
0.681784 0.255692 0.101202
0.782810 0.267943 0.125096
0.902085 0.267943 0.125096
1.000000 0.267943 0.125096
0.000000 0.393849 0.125096
0.150577 0.393849 0.125096
0.284908 0.393849 0.125096
0.413722 0.393849 0.125096
0.555252 0.398185 0.107529
0.681784 0.391858 0.101202
0.806295 0.385633 0.094976
0.929148 0.379490 0.088834
1.000000 0.355433 0.078775
0.000000 0.517632 0.125096
0.150577 0.517632 0.125096
0.284908 0.517632 0.125096
0.413722 0.517632 0.125096
0.539079 0.517632 0.125096
0.681784 0.525730 0.101202
0.806295 0.519505 0.094976
0.929148 0.513362 0.088834
1.000000 0.482857 0.078775
0.000000 0.639862 0.125096
0.150577 0.639862 0.125096
0.284908 0.639862 0.125096
0.413722 0.639862 0.125096
0.539079 0.639862 0.125096
0.661927 0.639862 0.125096
0.806295 0.651696 0.094976
0.929148 0.645553 0.088834
1.000000 0.608681 0.078775
0.000000 0.760866 0.125096
0.150577 0.760866 0.125096
0.284908 0.760866 0.125096
0.413722 0.760866 0.125096
0.539079 0.760866 0.125096
0.661927 0.760866 0.125096
0.782810 0.760866 0.125096
0.929148 0.776419 0.088834
1.000000 0.733244 0.078775
0.000000 0.880862 0.125096
0.150577 0.880862 0.125096
0.284908 0.880862 0.125096
0.413722 0.880862 0.125096
0.539079 0.880862 0.125096
0.661927 0.880862 0.125096
0.782810 0.880862 0.125096
0.902085 0.880862 0.125096
1.000000 0.856769 0.078775
0.000000 1.000000 0.125096
0.150577 1.000000 0.125096
0.284908 1.000000 0.125096
0.413722 1.000000 0.125096
0.539079 1.000000 0.125096
0.661927 1.000000 0.125096
0.782810 1.000000 0.125096
0.902085 1.000000 0.125096
1.000000 1.000000 0.125096
0.000000 0.000000 0.246747
0.150577 0.000000 0.246747
0.284908 0.000000 0.246747
0.413722 0.000000 0.246747
0.539079 0.000000 0.246747
0.661927 0.000000 0.246747
0.782810 0.000000 0.246747
0.902085 0.000000 0.246747
1.000000 0.000000 0.246747
0.000000 0.138696 0.246747
0.150577 0.138696 0.246747
0.284908 0.138696 0.246747
0.413722 0.138696 0.246747
0.539079 0.138696 0.246747
0.661927 0.138696 0.246747
0.782810 0.138696 0.246747
0.902085 0.138696 0.246747
1.000000 0.138696 0.246747
0.000000 0.267943 0.246747
0.150577 0.267943 0.246747
0.293455 0.275108 0.252184
0.413722 0.267943 0.246747
0.539079 0.267943 0.246747
0.661927 0.267943 0.246747
0.782810 0.267943 0.246747
0.902085 0.267943 0.246747
1.000000 0.267943 0.246747
0.000000 0.393849 0.246747
0.150577 0.393849 0.246747
0.284908 0.393849 0.246747
0.426134 0.404641 0.245551
0.555252 0.398185 0.239095
0.681784 0.391858 0.232768
0.806295 0.385633 0.226542
0.902085 0.393849 0.246747
1.000000 0.393849 0.246747
0.000000 0.517632 0.246747
0.150577 0.517632 0.246747
0.284908 0.517632 0.246747
0.413722 0.517632 0.246747
0.539079 0.517632 0.246747
0.681784 0.525730 0.232768
0.806295 0.519505 0.226542
0.929148 0.513362 0.220400
1.000000 0.482857 0.204005
0.000000 0.639862 0.246747
0.150577 0.639862 0.246747
0.284908 0.639862 0.246747
0.413722 0.639862 0.246747
0.539079 0.639862 0.246747
0.661927 0.639862 0.246747
0.806295 0.651696 0.226542
0.929148 0.645553 0.220400
1.000000 0.608681 0.204005
0.000000 0.760866 0.246747
0.150577 0.760866 0.246747
0.284908 0.760866 0.246747
0.413722 0.760866 0.246747
0.539079 0.760866 0.246747
0.661927 0.760866 0.246747
0.782810 0.760866 0.246747
0.929148 0.776419 0.220400
1.000000 0.733244 0.204005
0.000000 0.880862 0.246747
0.150577 0.880862 0.246747
0.284908 0.880862 0.246747
0.413722 0.880862 0.246747
0.539079 0.880862 0.246747
0.661927 0.880862 0.246747
0.782810 0.880862 0.246747
0.902085 0.880862 0.246747
1.000000 0.856769 0.204005
0.000000 1.000000 0.246747
0.150577 1.000000 0.246747
0.284908 1.000000 0.246747
0.413722 1.000000 0.246747
0.539079 1.000000 0.246747
0.661927 1.000000 0.246747
0.782810 1.000000 0.246747
0.902085 1.000000 0.246747
1.000000 1.000000 0.246747
0.000000 0.000000 0.367132
0.150577 0.000000 0.367132
0.284908 0.000000 0.367132
0.413722 0.000000 0.367132
0.539079 0.000000 0.367132
0.661927 0.000000 0.367132
0.782810 0.000000 0.367132
0.902085 0.000000 0.367132
1.000000 0.000000 0.367132
0.000000 0.138696 0.367132
0.150577 0.138696 0.367132
0.284908 0.138696 0.367132
0.413722 0.138696 0.367132
0.539079 0.138696 0.367132
0.661927 0.138696 0.367132
0.782810 0.138696 0.367132
0.902085 0.138696 0.367132
1.000000 0.138696 0.367132
0.000000 0.267943 0.367132
0.150577 0.267943 0.367132
0.284908 0.267943 0.367132
0.413722 0.267943 0.367132
0.539079 0.267943 0.367132
0.661927 0.267943 0.367132
0.782810 0.267943 0.367132
0.902085 0.267943 0.367132
1.000000 0.267943 0.367132
0.000000 0.393849 0.367132
0.150577 0.393849 0.367132
0.284908 0.393849 0.367132
0.426134 0.404641 0.375746
0.539079 0.393849 0.367132
0.661927 0.393849 0.367132
0.782810 0.393849 0.367132
0.902085 0.393849 0.367132
1.000000 0.393849 0.367132
0.000000 0.517632 0.367132
0.150577 0.517632 0.367132
0.284908 0.517632 0.367132
0.413722 0.517632 0.367132
0.555252 0.532057 0.369290
0.681784 0.525730 0.362964
0.806295 0.519505 0.356738
0.929148 0.513362 0.350596
1.000000 0.517632 0.367132
0.000000 0.639862 0.367132
0.150577 0.639862 0.367132
0.284908 0.639862 0.367132
0.413722 0.639862 0.367132
0.539079 0.639862 0.367132
0.661927 0.639862 0.367132
0.806295 0.651696 0.356738
0.929148 0.645553 0.350596
1.000000 0.608681 0.327930
0.000000 0.760866 0.367132
0.150577 0.760866 0.367132
0.284908 0.760866 0.367132
0.413722 0.760866 0.367132
0.539079 0.760866 0.367132
0.661927 0.760866 0.367132
0.782810 0.760866 0.367132
0.929148 0.776419 0.350596
1.000000 0.733244 0.327930
0.000000 0.880862 0.367132
0.150577 0.880862 0.367132
0.284908 0.880862 0.367132
0.413722 0.880862 0.367132
0.539079 0.880862 0.367132
0.661927 0.880862 0.367132
0.782810 0.880862 0.367132
0.902085 0.880862 0.367132
1.000000 0.856769 0.327930
0.000000 1.000000 0.367132
0.150577 1.000000 0.367132
0.284908 1.000000 0.367132
0.413722 1.000000 0.367132
0.539079 1.000000 0.367132
0.661927 1.000000 0.367132
0.782810 1.000000 0.367132
0.902085 1.000000 0.367132
1.000000 1.000000 0.367132
0.000000 0.000000 0.486701
0.150577 0.000000 0.486701
0.284908 0.000000 0.486701
0.413722 0.000000 0.486701
0.539079 0.000000 0.486701
0.661927 0.000000 0.486701
0.782810 0.000000 0.486701
0.902085 0.000000 0.486701
1.000000 0.000000 0.486701
0.000000 0.138696 0.486701
0.150577 0.138696 0.486701
0.284908 0.138696 0.486701
0.413722 0.138696 0.486701
0.539079 0.138696 0.486701
0.661927 0.138696 0.486701
0.782810 0.138696 0.486701
0.902085 0.138696 0.486701
1.000000 0.138696 0.486701
0.000000 0.267943 0.486701
0.150577 0.267943 0.486701
0.284908 0.267943 0.486701
0.413722 0.267943 0.486701
0.539079 0.267943 0.486701
0.661927 0.267943 0.486701
0.782810 0.267943 0.486701
0.902085 0.267943 0.486701
1.000000 0.267943 0.486701
0.000000 0.393849 0.486701
0.150577 0.393849 0.486701
0.284908 0.393849 0.486701
0.413722 0.393849 0.486701
0.539079 0.393849 0.486701
0.661927 0.393849 0.486701
0.782810 0.393849 0.486701
0.902085 0.393849 0.486701
1.000000 0.393849 0.486701
0.000000 0.517632 0.486701
0.150577 0.517632 0.486701
0.284908 0.517632 0.486701
0.413722 0.517632 0.486701
0.555252 0.532057 0.498604
0.661927 0.517632 0.486701
0.782810 0.517632 0.486701
0.902085 0.517632 0.486701
1.000000 0.517632 0.486701
0.000000 0.639862 0.486701
0.150577 0.639862 0.486701
0.284908 0.639862 0.486701
0.413722 0.639862 0.486701
0.539079 0.639862 0.486701
0.681784 0.657921 0.492277
0.806295 0.651696 0.486052
0.929148 0.645553 0.479909
1.000000 0.608681 0.451015
0.000000 0.760866 0.486701
0.150577 0.760866 0.486701
0.284908 0.760866 0.486701
0.413722 0.760866 0.486701
0.539079 0.760866 0.486701
0.661927 0.760866 0.486701
0.782810 0.760866 0.486701
0.929148 0.776419 0.479909
1.000000 0.733244 0.451015
0.000000 0.880862 0.486701
0.150577 0.880862 0.486701
0.284908 0.880862 0.486701
0.413722 0.880862 0.486701
0.539079 0.880862 0.486701
0.661927 0.880862 0.486701
0.782810 0.880862 0.486701
0.902085 0.880862 0.486701
1.000000 0.856769 0.451015
0.000000 1.000000 0.486701
0.150577 1.000000 0.486701
0.284908 1.000000 0.486701
0.413722 1.000000 0.486701
0.539079 1.000000 0.486701
0.661927 1.000000 0.486701
0.782810 1.000000 0.486701
0.902085 1.000000 0.486701
1.000000 1.000000 0.486701
0.000000 0.000000 0.605667
0.150577 0.000000 0.605667
0.284908 0.000000 0.605667
0.413722 0.000000 0.605667
0.539079 0.000000 0.605667
0.661927 0.000000 0.605667
0.782810 0.000000 0.605667
0.902085 0.000000 0.605667
1.000000 0.000000 0.605667
0.000000 0.138696 0.605667
0.150577 0.138696 0.605667
0.284908 0.138696 0.605667
0.413722 0.138696 0.605667
0.539079 0.138696 0.605667
0.661927 0.138696 0.605667
0.782810 0.138696 0.605667
0.902085 0.138696 0.605667
1.000000 0.138696 0.605667
0.000000 0.267943 0.605667
0.150577 0.267943 0.605667
0.284908 0.267943 0.605667
0.413722 0.267943 0.605667
0.539079 0.267943 0.605667
0.661927 0.267943 0.605667
0.782810 0.267943 0.605667
0.902085 0.267943 0.605667
1.000000 0.267943 0.605667
0.000000 0.393849 0.605667
0.150577 0.393849 0.605667
0.284908 0.393849 0.605667
0.413722 0.393849 0.605667
0.539079 0.393849 0.605667
0.661927 0.393849 0.605667
0.782810 0.393849 0.605667
0.902085 0.393849 0.605667
1.000000 0.393849 0.605667
0.000000 0.517632 0.605667
0.150577 0.517632 0.605667
0.284908 0.517632 0.605667
0.413722 0.517632 0.605667
0.539079 0.517632 0.605667
0.661927 0.517632 0.605667
0.782810 0.517632 0.605667
0.902085 0.517632 0.605667
1.000000 0.517632 0.605667
0.000000 0.639862 0.605667
0.150577 0.639862 0.605667
0.284908 0.639862 0.605667
0.413722 0.639862 0.605667
0.539079 0.639862 0.605667
0.681784 0.657921 0.620939
0.782810 0.639862 0.605667
0.902085 0.639862 0.605667
1.000000 0.639862 0.605667
0.000000 0.760866 0.605667
0.150577 0.760866 0.605667
0.284908 0.760866 0.605667
0.413722 0.760866 0.605667
0.539079 0.760866 0.605667
0.661927 0.760866 0.605667
0.806295 0.782562 0.614714
0.929148 0.776419 0.608571
1.000000 0.733244 0.573480
0.000000 0.880862 0.605667
0.150577 0.880862 0.605667
0.284908 0.880862 0.605667
0.413722 0.880862 0.605667
0.539079 0.880862 0.605667
0.661927 0.880862 0.605667
0.782810 0.880862 0.605667
0.902085 0.880862 0.605667
1.000000 0.856769 0.573480
0.000000 1.000000 0.605667
0.150577 1.000000 0.605667
0.284908 1.000000 0.605667
0.413722 1.000000 0.605667
0.539079 1.000000 0.605667
0.661927 1.000000 0.605667
0.782810 1.000000 0.605667
0.902085 1.000000 0.605667
1.000000 1.000000 0.605667
0.000000 0.000000 0.724155
0.150577 0.000000 0.724155
0.284908 0.000000 0.724155
0.413722 0.000000 0.724155
0.539079 0.000000 0.724155
0.661927 0.000000 0.724155
0.782810 0.000000 0.724155
0.902085 0.000000 0.724155
1.000000 0.000000 0.724155
0.000000 0.138696 0.724155
0.150577 0.138696 0.724155
0.284908 0.138696 0.724155
0.413722 0.138696 0.724155
0.539079 0.138696 0.724155
0.661927 0.138696 0.724155
0.782810 0.138696 0.724155
0.902085 0.138696 0.724155
1.000000 0.138696 0.724155
0.000000 0.267943 0.724155
0.150577 0.267943 0.724155
0.284908 0.267943 0.724155
0.413722 0.267943 0.724155
0.539079 0.267943 0.724155
0.661927 0.267943 0.724155
0.782810 0.267943 0.724155
0.902085 0.267943 0.724155
1.000000 0.267943 0.724155
0.000000 0.393849 0.724155
0.150577 0.393849 0.724155
0.284908 0.393849 0.724155
0.413722 0.393849 0.724155
0.539079 0.393849 0.724155
0.661927 0.393849 0.724155
0.782810 0.393849 0.724155
0.902085 0.393849 0.724155
1.000000 0.393849 0.724155
0.000000 0.517632 0.724155
0.150577 0.517632 0.724155
0.284908 0.517632 0.724155
0.413722 0.517632 0.724155
0.539079 0.517632 0.724155
0.661927 0.517632 0.724155
0.782810 0.517632 0.724155
0.902085 0.517632 0.724155
1.000000 0.517632 0.724155
0.000000 0.639862 0.724155
0.150577 0.639862 0.724155
0.284908 0.639862 0.724155
0.413722 0.639862 0.724155
0.539079 0.639862 0.724155
0.661927 0.639862 0.724155
0.782810 0.639862 0.724155
0.902085 0.639862 0.724155
1.000000 0.639862 0.724155
0.000000 0.760866 0.724155
0.150577 0.760866 0.724155
0.284908 0.760866 0.724155
0.413722 0.760866 0.724155
0.539079 0.760866 0.724155
0.661927 0.760866 0.724155
0.806295 0.782562 0.742858
0.902085 0.760866 0.724155
1.000000 0.760866 0.724155
0.000000 0.880862 0.724155
0.150577 0.880862 0.724155
0.284908 0.880862 0.724155
0.413722 0.880862 0.724155
0.539079 0.880862 0.724155
0.661927 0.880862 0.724155
0.782810 0.880862 0.724155
0.929148 0.906194 0.736716
1.000000 0.856769 0.695453
0.000000 1.000000 0.724155
0.150577 1.000000 0.724155
0.284908 1.000000 0.724155
0.413722 1.000000 0.724155
0.539079 1.000000 0.724155
0.661927 1.000000 0.724155
0.782810 1.000000 0.724155
0.902085 1.000000 0.724155
1.000000 1.000000 0.724155
0.000000 0.000000 0.842246
0.150577 0.000000 0.842246
0.284908 0.000000 0.842246
0.413722 0.000000 0.842246
0.539079 0.000000 0.842246
0.661927 0.000000 0.842246
0.782810 0.000000 0.842246
0.902085 0.000000 0.842246
1.000000 0.000000 0.842246
0.000000 0.138696 0.842246
0.150577 0.138696 0.842246
0.284908 0.138696 0.842246
0.413722 0.138696 0.842246
0.539079 0.138696 0.842246
0.661927 0.138696 0.842246
0.782810 0.138696 0.842246
0.902085 0.138696 0.842246
1.000000 0.138696 0.842246
0.000000 0.267943 0.842246
0.150577 0.267943 0.842246
0.284908 0.267943 0.842246
0.413722 0.267943 0.842246
0.539079 0.267943 0.842246
0.661927 0.267943 0.842246
0.782810 0.267943 0.842246
0.902085 0.267943 0.842246
1.000000 0.267943 0.842246
0.000000 0.393849 0.842246
0.150577 0.393849 0.842246
0.284908 0.393849 0.842246
0.413722 0.393849 0.842246
0.539079 0.393849 0.842246
0.661927 0.393849 0.842246
0.782810 0.393849 0.842246
0.902085 0.393849 0.842246
1.000000 0.393849 0.842246
0.000000 0.517632 0.842246
0.150577 0.517632 0.842246
0.284908 0.517632 0.842246
0.413722 0.517632 0.842246
0.539079 0.517632 0.842246
0.661927 0.517632 0.842246
0.782810 0.517632 0.842246
0.902085 0.517632 0.842246
1.000000 0.517632 0.842246
0.000000 0.639862 0.842246
0.150577 0.639862 0.842246
0.284908 0.639862 0.842246
0.413722 0.639862 0.842246
0.539079 0.639862 0.842246
0.661927 0.639862 0.842246
0.782810 0.639862 0.842246
0.902085 0.639862 0.842246
1.000000 0.639862 0.842246
0.000000 0.760866 0.842246
0.150577 0.760866 0.842246
0.284908 0.760866 0.842246
0.413722 0.760866 0.842246
0.539079 0.760866 0.842246
0.661927 0.760866 0.842246
0.782810 0.760866 0.842246
0.902085 0.760866 0.842246
1.000000 0.760866 0.842246
0.000000 0.880862 0.842246
0.150577 0.880862 0.842246
0.284908 0.880862 0.842246
0.413722 0.880862 0.842246
0.539079 0.880862 0.842246
0.661927 0.880862 0.842246
0.782810 0.880862 0.842246
0.929148 0.906194 0.864432
1.000000 0.880862 0.842246
0.000000 1.000000 0.842246
0.150577 1.000000 0.842246
0.284908 1.000000 0.842246
0.413722 1.000000 0.842246
0.539079 1.000000 0.842246
0.661927 1.000000 0.842246
0.782810 1.000000 0.842246
0.902085 1.000000 0.842246
1.000000 0.979412 0.817018
0.000000 0.000000 0.960000
0.150577 0.000000 0.960000
0.284908 0.000000 0.960000
0.413722 0.000000 0.960000
0.539079 0.000000 0.960000
0.661927 0.000000 0.960000
0.782810 0.000000 0.960000
0.902085 0.000000 0.960000
1.000000 0.000000 0.960000
0.000000 0.138696 0.960000
0.150577 0.138696 0.960000
0.284908 0.138696 0.960000
0.413722 0.138696 0.960000
0.539079 0.138696 0.960000
0.661927 0.138696 0.960000
0.782810 0.138696 0.960000
0.902085 0.138696 0.960000
1.000000 0.138696 0.960000
0.000000 0.267943 0.960000
0.150577 0.267943 0.960000
0.284908 0.267943 0.960000
0.413722 0.267943 0.960000
0.539079 0.267943 0.960000
0.661927 0.267943 0.960000
0.782810 0.267943 0.960000
0.902085 0.267943 0.960000
1.000000 0.267943 0.960000
0.000000 0.393849 0.960000
0.150577 0.393849 0.960000
0.284908 0.393849 0.960000
0.413722 0.393849 0.960000
0.539079 0.393849 0.960000
0.661927 0.393849 0.960000
0.782810 0.393849 0.960000
0.902085 0.393849 0.960000
1.000000 0.393849 0.960000
0.000000 0.517632 0.960000
0.150577 0.517632 0.960000
0.284908 0.517632 0.960000
0.413722 0.517632 0.960000
0.539079 0.517632 0.960000
0.661927 0.517632 0.960000
0.782810 0.517632 0.960000
0.902085 0.517632 0.960000
1.000000 0.517632 0.960000
0.000000 0.639862 0.960000
0.150577 0.639862 0.960000
0.284908 0.639862 0.960000
0.413722 0.639862 0.960000
0.539079 0.639862 0.960000
0.661927 0.639862 0.960000
0.782810 0.639862 0.960000
0.902085 0.639862 0.960000
1.000000 0.639862 0.960000
0.000000 0.760866 0.960000
0.150577 0.760866 0.960000
0.284908 0.760866 0.960000
0.413722 0.760866 0.960000
0.539079 0.760866 0.960000
0.661927 0.760866 0.960000
0.782810 0.760866 0.960000
0.902085 0.760866 0.960000
1.000000 0.760866 0.960000
0.000000 0.880862 0.960000
0.150577 0.880862 0.960000
0.284908 0.880862 0.960000
0.413722 0.880862 0.960000
0.539079 0.880862 0.960000
0.661927 0.880862 0.960000
0.782810 0.880862 0.960000
0.902085 0.880862 0.960000
1.000000 0.880862 0.960000
0.000000 1.000000 0.960000
0.150577 1.000000 0.960000
0.284908 1.000000 0.960000
0.413722 1.000000 0.960000
0.539079 1.000000 0.960000
0.661927 1.000000 0.960000
0.782810 1.000000 0.960000
0.902085 1.000000 0.960000
1.000000 0.979412 0.938235
