luts/warm_studio.cube
# Generated by OpenMontage LUT Generator
TITLE "Warm Studio"
LUT_3D_SIZE 5
DOMAIN_MIN 0.0 0.0 0.0
DOMAIN_MAX 1.0 1.0 1.0
0.000000 0.000000 0.000000
0.284908 0.000000 0.000000
0.539079 0.000000 0.000000
0.782810 0.000000 0.000000
1.000000 0.000000 0.000000
0.000000 0.267943 0.000000
0.284908 0.267943 0.000000
0.555252 0.275982 0.000000
0.806295 0.275982 0.000000
1.000000 0.262690 0.000000
0.000000 0.517632 0.000000
0.284908 0.517632 0.000000
0.539079 0.517632 0.000000
0.806295 0.533161 0.000000
1.000000 0.507483 0.000000
0.000000 0.760866 0.000000
0.284908 0.760866 0.000000
0.539079 0.760866 0.000000
0.782810 0.760866 0.000000
1.000000 0.745947 0.000000
0.000000 1.000000 0.000000
0.284908 1.000000 0.000000
0.539079 1.000000 0.000000
0.782810 1.000000 0.000000
1.000000 1.000000 0.000000
0.000000 0.000000 0.246747
0.284908 0.000000 0.246747
0.539079 0.000000 0.246747
0.782810 0.000000 0.246747
1.000000 0.000000 0.246747
0.000000 0.267943 0.246747
0.293455 0.275108 0.252184
0.539079 0.267943 0.246747
0.782810 0.267943 0.246747
1.000000 0.267943 0.246747
0.000000 0.517632 0.246747
0.284908 0.517632 0.246747
0.539079 0.517632 0.246747
0.806295 0.519505 0.226542
1.000000 0.482857 0.204005
0.000000 0.760866 0.246747
0.284908 0.760866 0.246747
0.539079 0.760866 0.246747
0.782810 0.760866 0.246747
1.000000 0.733244 0.204005
0.000000 1.000000 0.246747
0.284908 1.000000 0.246747
0.539079 1.000000 0.246747
0.782810 1.000000 0.246747
1.000000 1.000000 0.246747
0.000000 0.000000 0.486701
0.284908 0.000000 0.486701
0.539079 0.000000 0.486701
0.782810 0.000000 0.486701
1.000000 0.000000 0.486701
0.000000 0.267943 0.486701
0.284908 0.267943 0.486701
0.539079 0.267943 0.486701
0.782810 0.267943 0.486701
1.000000 0.267943 0.486701
0.000000 0.517632 0.486701
0.284908 0.517632 0.486701
0.555252 0.532057 0.498604
0.782810 0.517632 0.486701
1.000000 0.517632 0.486701
0.000000 0.760866 0.486701
0.284908 0.760866 0.486701
0.539079 0.760866 0.486701
0.782810 0.760866 0.486701
1.000000 0.733244 0.451015
0.000000 1.000000 0.486701
0.284908 1.000000 0.486701
0.539079 1.000000 0.486701
0.782810 1.000000 0.486701
1.000000 1.000000 0.486701
0.000000 0.000000 0.724155
0.284908 0.000000 0.724155
0.539079 0.000000 0.724155
0.782810 0.000000 0.724155
1.000000 0.000000 0.724155
0.000000 0.267943 0.724155
0.284908 0.267943 0.724155
0.539079 0.267943 0.724155
0.782810 0.267943 0.724155
1.000000 0.267943 0.724155
0.000000 0.517632 0.724155
0.284908 0.517632 0.724155
0.539079 0.517632 0.724155
0.782810 0.517632 0.724155
1.000000 0.517632 0.724155
0.000000 0.760866 0.724155
0.284908 0.760866 0.724155
0.539079 0.760866 0.724155
0.806295 0.782562 0.742858
1.000000 0.760866 0.724155
0.000000 1.000000 0.724155
0.284908 1.000000 0.724155
0.539079 1.000000 0.724155
0.782810 1.000000 0.724155
1.000000 1.000000 0.724155
0.000000 0.000000 0.960000
0.284908 0.000000 0.960000
0.539079 0.000000 0.960000
0.782810 0.000000 0.960000
1.000000 0.000000 0.960000
0.000000 0.267943 0.960000
0.284908 0.267943 0.960000
0.539079 0.267943 0.960000
0.782810 0.267943 0.960000
1.000000 0.267943 0.960000
0.000000 0.517632 0.960000
0.284908 0.517632 0.960000
0.539079 0.517632 0.960000
0.782810 0.517632 0.960000
1.000000 0.517632 0.960000
0.000000 0.760866 0.960000
0.284908 0.760866 0.960000
0.539079 0.760866 0.960000
0.782810 0.760866 0.960000
1.000000 0.760866 0.960000
0.000000 1.000000 0.960000
0.284908 1.000000 0.960000
0.539079 1.000000 0.960000
0.782810 1.000000 0.960000
1.000000 0.979412 0.938235
