luts/warm_studio.cube
# Generated by OpenMontage LUT Generator
TITLE "Warm Studio"
LUT_3D_SIZE 33
DOMAIN_MIN 0.0 0.0 0.0
DOMAIN_MAX 1.0 1.0 1.0
0.000000 0.000000 0.000000
0.042059 0.000000 0.000000
0.079581 0.000000 0.000000
0.115562 0.000000 0.000000
0.150577 0.000000 0.000000
0.184890 0.000000 0.000000
0.218656 0.000000 0.000000
0.251972 0.000000 0.000000
0.284908 0.000000 0.000000
0.317516 0.000000 0.000000
0.349834 0.000000 0.000000
0.381895 0.000000 0.000000
0.413722 0.000000 0.000000
0.445338 0.000000 0.000000
0.476760 0.000000 0.000000
0.508003 0.000000 0.000000
0.539079 0.000000 0.000000
0.570000 0.000000 0.000000
0.600776 0.000000 0.000000
0.631416 0.000000 0.000000
0.661927 0.000000 0.000000
0.692315 0.000000 0.000000
0.722589 0.000000 0.000000
0.752752 0.000000 0.000000
0.782810 0.000000 0.000000
0.812769 0.000000 0.000000
0.842631 0.000000 0.000000
0.872402 0.000000 0.000000
0.902085 0.000000 0.000000
0.931683 0.000000 0.000000
0.961200 0.000000 0.000000
0.990638 0.000000 0.000000
1.000000 0.000000 0.000000
0.000000 0.037163 0.000000
0.043321 0.038278 0.000000
0.081969 0.038278 0.000000
0.119029 0.038278 0.000000
0.150577 0.037163 0.000000
0.184890 0.037163 0.000000
0.218656 0.037163 0.000000
0.251972 0.037163 0.000000
0.284908 0.037163 0.000000
0.317516 0.037163 0.000000
0.349834 0.037163 0.000000
0.381895 0.037163 0.000000
0.413722 0.037163 0.000000
0.445338 0.037163 0.000000
0.476760 0.037163 0.000000
0.508003 0.037163 0.000000
0.539079 0.037163 0.000000
0.570000 0.037163 0.000000
0.600776 0.037163 0.000000
0.631416 0.037163 0.000000
0.661927 0.037163 0.000000
0.692315 0.037163 0.000000
0.722589 0.037163 0.000000
0.752752 0.037163 0.000000
0.782810 0.037163 0.000000
0.812769 0.037163 0.000000
0.842631 0.037163 0.000000
0.872402 0.037163 0.000000
0.902085 0.037163 0.000000
0.931683 0.037163 0.000000
0.961200 0.037163 0.000000
0.990638 0.037163 0.000000
1.000000 0.037163 0.000000
0.000000 0.071794 0.000000
0.042059 0.071794 0.000000
0.081969 0.073947 0.000000
0.119029 0.073947 0.000000
0.155094 0.073947 0.000000
0.190437 0.073947 0.000000
0.225216 0.073947 0.000000
0.259531 0.073947 0.000000
0.293455 0.073947 0.000000
0.317516 0.071794 0.000000
0.349834 0.071794 0.000000
0.381895 0.071794 0.000000
0.413722 0.071794 0.000000
0.445338 0.071794 0.000000
0.476760 0.071794 0.000000
0.508003 0.071794 0.000000
0.539079 0.071794 0.000000
0.570000 0.071794 0.000000
0.600776 0.071794 0.000000
0.631416 0.071794 0.000000
0.661927 0.071794 0.000000
0.692315 0.071794 0.000000
0.722589 0.071794 0.000000
0.752752 0.071794 0.000000
0.782810 0.071794 0.000000
0.812769 0.071794 0.000000
0.842631 0.071794 0.000000
0.872402 0.071794 0.000000
0.902085 0.071794 0.000000
0.931683 0.071794 0.000000
0.961200 0.071794 0.000000
0.990638 0.071794 0.000000
1.000000 0.071794 0.000000
0.000000 0.105529 0.000000
0.042059 0.105529 0.000000
0.079581 0.105529 0.000000
0.119029 0.108695 0.000000
0.155094 0.108695 0.000000
0.190437 0.108695 0.000000
0.225216 0.108695 0.000000
0.259531 0.108695 0.000000
0.293455 0.108695 0.000000
0.327041 0.108695 0.000000
0.360329 0.108695 0.000000
0.393351 0.108695 0.000000
0.426134 0.108695 0.000000
0.445338 0.105529 0.000000
0.476760 0.105529 0.000000
0.508003 0.105529 0.000000
0.539079 0.105529 0.000000
0.570000 0.105529 0.000000
0.600776 0.105529 0.000000
0.631416 0.105529 0.000000
0.661927 0.105529 0.000000
0.692315 0.105529 0.000000
0.722589 0.105529 0.000000
0.752752 0.105529 0.000000
0.782810 0.105529 0.000000
0.812769 0.105529 0.000000
0.842631 0.105529 0.000000
0.872402 0.105529 0.000000
0.902085 0.105529 0.000000
0.931683 0.105529 0.000000
0.961200 0.105529 0.000000
0.990638 0.105529 0.000000
1.000000 0.105529 0.000000
0.000000 0.138696 0.000000
0.042059 0.138696 0.000000
0.079581 0.138696 0.000000
0.115562 0.138696 0.000000
0.150577 0.138696 0.000000
0.190437 0.142857 0.000000
0.225216 0.142857 0.000000
0.259531 0.142857 0.000000
0.293455 0.142857 0.000000
0.327041 0.142857 0.000000
0.360329 0.142857 0.000000
0.393351 0.142857 0.000000
0.426134 0.142857 0.000000
0.458698 0.142857 0.000000
0.491063 0.142857 0.000000
0.523243 0.142857 0.000000
0.555252 0.142857 0.000000
0.570000 0.138696 0.000000
0.600776 0.138696 0.000000
0.631416 0.138696 0.000000
0.661927 0.138696 0.000000
0.692315 0.138696 0.000000
0.722589 0.138696 0.000000
0.752752 0.138696 0.000000
0.782810 0.138696 0.000000
0.812769 0.138696 0.000000
0.842631 0.138696 0.000000
0.872402 0.138696 0.000000
0.902085 0.138696 0.000000
0.931683 0.138696 0.000000
0.961200 0.138696 0.000000
0.990638 0.138696 0.000000
1.000000 0.138696 0.000000
0.000000 0.171447 0.000000
0.042059 0.171447 0.000000
0.079581 0.171447 0.000000
0.115562 0.171447 0.000000
0.150577 0.171447 0.000000
0.184890 0.171447 0.000000
0.225216 0.176590 0.000000
0.259531 0.176590 0.000000
0.293455 0.176590 0.000000
0.327041 0.176590 0.000000
0.360329 0.176590 0.000000
0.393351 0.176590 0.000000
0.426134 0.176590 0.000000
0.458698 0.176590 0.000000
0.491063 0.176590 0.000000
0.523243 0.176590 0.000000
0.555252 0.176590 0.000000
0.587100 0.176590 0.000000
0.618800 0.176590 0.000000
0.650358 0.176590 0.000000
0.681784 0.176590 0.000000
0.692315 0.171447 0.000000
0.722589 0.171447 0.000000
0.752752 0.171447 0.000000
0.782810 0.171447 0.000000
0.812769 0.171447 0.000000
0.842631 0.171447 0.000000
0.872402 0.171447 0.000000
0.902085 0.171447 0.000000
0.931683 0.171447 0.000000
0.961200 0.171447 0.000000
0.990638 0.171447 0.000000
1.000000 0.171447 0.000000
0.000000 0.203869 0.000000
0.042059 0.203869 0.000000
0.079581 0.203869 0.000000
0.115562 0.203869 0.000000
0.150577 0.203869 0.000000
0.184890 0.203869 0.000000
0.218656 0.203869 0.000000
0.259531 0.209985 0.000000
0.293455 0.209985 0.000000
0.327041 0.209985 0.000000
0.360329 0.209985 0.000000
0.393351 0.209985 0.000000
0.426134 0.209985 0.000000
0.458698 0.209985 0.000000
0.491063 0.209985 0.000000
0.523243 0.209985 0.000000
0.555252 0.209985 0.000000
0.587100 0.209985 0.000000
0.618800 0.209985 0.000000
0.650358 0.209985 0.000000
0.681784 0.209985 0.000000
0.713085 0.209985 0.000000
0.744266 0.209985 0.000000
0.775334 0.209985 0.000000
0.806295 0.209985 0.000000
0.837152 0.209985 0.000000
0.842631 0.203869 0.000000
0.872402 0.203869 0.000000
0.902085 0.203869 0.000000
0.931683 0.203869 0.000000
0.961200 0.203869 0.000000
0.990638 0.203869 0.000000
1.000000 0.203869 0.000000
0.000000 0.236021 0.000000
0.042059 0.236021 0.000000
0.079581 0.236021 0.000000
0.115562 0.236021 0.000000
0.150577 0.236021 0.000000
0.184890 0.236021 0.000000
0.218656 0.236021 0.000000
0.251972 0.236021 0.000000
0.293455 0.243102 0.000000
0.327041 0.243102 0.000000
0.360329 0.243102 0.000000
0.393351 0.243102 0.000000
0.426134 0.243102 0.000000
0.458698 0.243102 0.000000
0.491063 0.243102 0.000000
0.523243 0.243102 0.000000
0.555252 0.243102 0.000000
0.587100 0.243102 0.000000
0.618800 0.243102 0.000000
0.650358 0.243102 0.000000
0.681784 0.243102 0.000000
0.713085 0.243102 0.000000
0.744266 0.243102 0.000000
0.775334 0.243102 0.000000
0.806295 0.243102 0.000000
0.837152 0.243102 0.000000
0.867910 0.243102 0.000000
0.898574 0.243102 0.000000
0.929148 0.243102 0.000000
0.959634 0.243102 0.000000
0.961200 0.236021 0.000000
0.990638 0.236021 0.000000
1.000000 0.236021 0.000000
0.000000 0.267943 0.000000
0.042059 0.267943 0.000000
0.079581 0.267943 0.000000
0.115562 0.267943 0.000000
0.150577 0.267943 0.000000
0.184890 0.267943 0.000000
0.218656 0.267943 0.000000
0.251972 0.267943 0.000000
0.284908 0.267943 0.000000
0.327041 0.275982 0.000000
0.360329 0.275982 0.000000
0.393351 0.275982 0.000000
0.426134 0.275982 0.000000
0.458698 0.275982 0.000000
0.491063 0.275982 0.000000
0.523243 0.275982 0.000000
0.555252 0.275982 0.000000
0.587100 0.275982 0.000000
0.618800 0.275982 0.000000
0.650358 0.275982 0.000000
0.681784 0.275982 0.000000
0.713085 0.275982 0.000000
0.744266 0.275982 0.000000
0.775334 0.275982 0.000000
0.806295 0.275982 0.000000
0.837152 0.275982 0.000000
0.867910 0.275982 0.000000
0.898574 0.275982 0.000000
0.929148 0.275982 0.000000
0.959634 0.275982 0.000000
0.990036 0.275982 0.000000
1.000000 0.270476 0.000000
1.000000 0.262690 0.000000
0.000000 0.299666 0.000000
0.042059 0.299666 0.000000
0.079581 0.299666 0.000000
0.115562 0.299666 0.000000
0.150577 0.299666 0.000000
0.184890 0.299666 0.000000
0.218656 0.299666 0.000000
0.251972 0.299666 0.000000
0.284908 0.299666 0.000000
0.317516 0.299666 0.000000
0.360329 0.308656 0.000000
0.393351 0.308656 0.000000
0.426134 0.308656 0.000000
0.458698 0.308656 0.000000
0.491063 0.308656 0.000000
0.523243 0.308656 0.000000
0.555252 0.308656 0.000000
0.587100 0.308656 0.000000
0.618800 0.308656 0.000000
0.650358 0.308656 0.000000
0.681784 0.308656 0.000000
0.713085 0.308656 0.000000
0.744266 0.308656 0.000000
0.775334 0.308656 0.000000
0.806295 0.308656 0.000000
0.837152 0.308656 0.000000
0.867910 0.308656 0.000000
0.898574 0.308656 0.000000
0.929148 0.308656 0.000000
0.959634 0.308656 0.000000
0.990036 0.308656 0.000000
1.000000 0.302498 0.000000
1.000000 0.293790 0.000000
0.000000 0.331213 0.000000
0.042059 0.331213 0.000000
0.079581 0.331213 0.000000
0.115562 0.331213 0.000000
0.150577 0.331213 0.000000
0.184890 0.331213 0.000000
0.218656 0.331213 0.000000
0.251972 0.331213 0.000000
0.284908 0.331213 0.000000
0.317516 0.331213 0.000000
0.349834 0.331213 0.000000
0.393351 0.341150 0.000000
0.426134 0.341150 0.000000
0.458698 0.341150 0.000000
0.491063 0.341150 0.000000
0.523243 0.341150 0.000000
0.555252 0.341150 0.000000
0.587100 0.341150 0.000000
0.618800 0.341150 0.000000
0.650358 0.341150 0.000000
0.681784 0.341150 0.000000
0.713085 0.341150 0.000000
0.744266 0.341150 0.000000
0.775334 0.341150 0.000000
0.806295 0.341150 0.000000
0.837152 0.341150 0.000000
0.867910 0.341150 0.000000
0.898574 0.341150 0.000000
0.929148 0.341150 0.000000
0.959634 0.341150 0.000000
0.990036 0.341150 0.000000
1.000000 0.334343 0.000000
1.000000 0.324719 0.000000
0.000000 0.362602 0.000000
0.042059 0.362602 0.000000
0.079581 0.362602 0.000000
0.115562 0.362602 0.000000
0.150577 0.362602 0.000000
0.184890 0.362602 0.000000
0.218656 0.362602 0.000000
0.251972 0.362602 0.000000
0.284908 0.362602 0.000000
0.317516 0.362602 0.000000
0.349834 0.362602 0.000000
0.381895 0.362602 0.000000
0.426134 0.373480 0.000000
0.458698 0.373480 0.000000
0.491063 0.373480 0.000000
0.523243 0.373480 0.000000
0.555252 0.373480 0.000000
0.587100 0.373480 0.000000
0.618800 0.373480 0.000000
0.650358 0.373480 0.000000
0.681784 0.373480 0.000000
0.713085 0.373480 0.000000
0.744266 0.373480 0.000000
0.775334 0.373480 0.000000
0.806295 0.373480 0.000000
0.837152 0.373480 0.000000
0.867910 0.373480 0.000000
0.898574 0.373480 0.000000
0.929148 0.373480 0.000000
0.959634 0.373480 0.000000
0.990036 0.373480 0.000000
1.000000 0.366029 0.000000
1.000000 0.355492 0.000000
0.000000 0.393849 0.000000
0.042059 0.393849 0.000000
0.079581 0.393849 0.000000
0.115562 0.393849 0.000000
0.150577 0.393849 0.000000
0.184890 0.393849 0.000000
0.218656 0.393849 0.000000
0.251972 0.393849 0.000000
0.284908 0.393849 0.000000
0.317516 0.393849 0.000000
0.349834 0.393849 0.000000
0.381895 0.393849 0.000000
0.413722 0.393849 0.000000
0.458698 0.405664 0.000000
0.491063 0.405664 0.000000
0.523243 0.405664 0.000000
0.555252 0.405664 0.000000
0.587100 0.405664 0.000000
0.618800 0.405664 0.000000
0.650358 0.405664 0.000000
0.681784 0.405664 0.000000
0.713085 0.405664 0.000000
0.744266 0.405664 0.000000
0.775334 0.405664 0.000000
0.806295 0.405664 0.000000
0.837152 0.405664 0.000000
0.867910 0.405664 0.000000
0.898574 0.405664 0.000000
0.929148 0.405664 0.000000
0.959634 0.405664 0.000000
0.990036 0.405664 0.000000
1.000000 0.397571 0.000000
1.000000 0.386126 0.000000
0.000000 0.424966 0.000000
0.042059 0.424966 0.000000
0.079581 0.424966 0.000000
0.115562 0.424966 0.000000
0.150577 0.424966 0.000000
0.184890 0.424966 0.000000
0.218656 0.424966 0.000000
0.251972 0.424966 0.000000
0.284908 0.424966 0.000000
0.317516 0.424966 0.000000
0.349834 0.424966 0.000000
0.381895 0.424966 0.000000
0.413722 0.424966 0.000000
0.445338 0.424966 0.000000
0.491063 0.437714 0.000000
0.523243 0.437714 0.000000
0.555252 0.437714 0.000000
0.587100 0.437714 0.000000
0.618800 0.437714 0.000000
0.650358 0.437714 0.000000
0.681784 0.437714 0.000000
0.713085 0.437714 0.000000
0.744266 0.437714 0.000000
0.775334 0.437714 0.000000
0.806295 0.437714 0.000000
0.837152 0.437714 0.000000
0.867910 0.437714 0.000000
0.898574 0.437714 0.000000
0.929148 0.437714 0.000000
0.959634 0.437714 0.000000
0.990036 0.437714 0.000000
1.000000 0.428982 0.000000
1.000000 0.416633 0.000000
0.000000 0.455963 0.000000
0.042059 0.455963 0.000000
0.079581 0.455963 0.000000
0.115562 0.455963 0.000000
0.150577 0.455963 0.000000
0.184890 0.455963 0.000000
0.218656 0.455963 0.000000
0.251972 0.455963 0.000000
0.284908 0.455963 0.000000
0.317516 0.455963 0.000000
0.349834 0.455963 0.000000
0.381895 0.455963 0.000000
0.413722 0.455963 0.000000
0.445338 0.455963 0.000000
0.476760 0.455963 0.000000
0.523243 0.469641 0.000000
0.555252 0.469641 0.000000
0.587100 0.469641 0.000000
0.618800 0.469641 0.000000
0.650358 0.469641 0.000000
0.681784 0.469641 0.000000
0.713085 0.469641 0.000000
0.744266 0.469641 0.000000
0.775334 0.469641 0.000000
0.806295 0.469641 0.000000
0.837152 0.469641 0.000000
0.867910 0.469641 0.000000
0.898574 0.469641 0.000000
0.929148 0.469641 0.000000
0.959634 0.469641 0.000000
0.990036 0.469641 0.000000
1.000000 0.460272 0.000000
1.000000 0.447022 0.000000
0.000000 0.486849 0.000000
0.042059 0.486849 0.000000
0.079581 0.486849 0.000000
0.115562 0.486849 0.000000
0.150577 0.486849 0.000000
0.184890 0.486849 0.000000
0.218656 0.486849 0.000000
0.251972 0.486849 0.000000
0.284908 0.486849 0.000000
0.317516 0.486849 0.000000
0.349834 0.486849 0.000000
0.381895 0.486849 0.000000
0.413722 0.486849 0.000000
0.445338 0.486849 0.000000
0.476760 0.486849 0.000000
0.508003 0.486849 0.000000
0.555252 0.501454 0.000000
0.587100 0.501454 0.000000
0.618800 0.501454 0.000000
0.650358 0.501454 0.000000
0.681784 0.501454 0.000000
0.713085 0.501454 0.000000
0.744266 0.501454 0.000000
0.775334 0.501454 0.000000
0.806295 0.501454 0.000000
0.837152 0.501454 0.000000
0.867910 0.501454 0.000000
0.898574 0.501454 0.000000
0.929148 0.501454 0.000000
0.959634 0.501454 0.000000
0.990036 0.501454 0.000000
1.000000 0.491450 0.000000
1.000000 0.477303 0.000000
0.000000 0.517632 0.000000
0.042059 0.517632 0.000000
0.079581 0.517632 0.000000
0.115562 0.517632 0.000000
0.150577 0.517632 0.000000
0.184890 0.517632 0.000000
0.218656 0.517632 0.000000
0.251972 0.517632 0.000000
0.284908 0.517632 0.000000
0.317516 0.517632 0.000000
0.349834 0.517632 0.000000
0.381895 0.517632 0.000000
0.413722 0.517632 0.000000
0.445338 0.517632 0.000000
0.476760 0.517632 0.000000
0.508003 0.517632 0.000000
0.539079 0.517632 0.000000
0.587100 0.533161 0.000000
0.618800 0.533161 0.000000
0.650358 0.533161 0.000000
0.681784 0.533161 0.000000
0.713085 0.533161 0.000000
0.744266 0.533161 0.000000
0.775334 0.533161 0.000000
0.806295 0.533161 0.000000
0.837152 0.533161 0.000000
0.867910 0.533161 0.000000
0.898574 0.533161 0.000000
0.929148 0.533161 0.000000
0.959634 0.533161 0.000000
0.990036 0.533161 0.000000
1.000000 0.522524 0.000000
1.000000 0.507483 0.000000
0.000000 0.548320 0.000000
0.042059 0.548320 0.000000
0.079581 0.548320 0.000000
0.115562 0.548320 0.000000
0.150577 0.548320 0.000000
0.184890 0.548320 0.000000
0.218656 0.548320 0.000000
0.251972 0.548320 0.000000
0.284908 0.548320 0.000000
0.317516 0.548320 0.000000
0.349834 0.548320 0.000000
0.381895 0.548320 0.000000
0.413722 0.548320 0.000000
0.445338 0.548320 0.000000
0.476760 0.548320 0.000000
0.508003 0.548320 0.000000
0.539079 0.548320 0.000000
0.570000 0.548320 0.000000
0.618800 0.564769 0.000000
0.650358 0.564769 0.000000
0.681784 0.564769 0.000000
0.713085 0.564769 0.000000
0.744266 0.564769 0.000000
0.775334 0.564769 0.000000
0.806295 0.564769 0.000000
0.837152 0.564769 0.000000
0.867910 0.564769 0.000000
0.898574 0.564769 0.000000
0.929148 0.564769 0.000000
0.959634 0.564769 0.000000
0.990036 0.564769 0.000000
1.000000 0.553502 0.000000
1.000000 0.537569 0.000000
0.000000 0.578917 0.000000
0.042059 0.578917 0.000000
0.079581 0.578917 0.000000
0.115562 0.578917 0.000000
0.150577 0.578917 0.000000
0.184890 0.578917 0.000000
0.218656 0.578917 0.000000
0.251972 0.578917 0.000000
0.284908 0.578917 0.000000
0.317516 0.578917 0.000000
0.349834 0.578917 0.000000
0.381895 0.578917 0.000000
0.413722 0.578917 0.000000
0.445338 0.578917 0.000000
0.476760 0.578917 0.000000
0.508003 0.578917 0.000000
0.539079 0.578917 0.000000
0.570000 0.578917 0.000000
0.600776 0.578917 0.000000
0.631416 0.578917 0.000000
0.681784 0.596285 0.000000
0.713085 0.596285 0.000000
0.744266 0.596285 0.000000
0.775334 0.596285 0.000000
0.806295 0.596285 0.000000
0.837152 0.596285 0.000000
0.867910 0.596285 0.000000
0.898574 0.596285 0.000000
0.929148 0.596285 0.000000
0.959634 0.596285 0.000000
0.990036 0.596285 0.000000
1.000000 0.584388 0.000000
1.000000 0.567566 0.000000
0.000000 0.609429 0.000000
0.042059 0.609429 0.000000
0.079581 0.609429 0.000000
0.115562 0.609429 0.000000
0.150577 0.609429 0.000000
0.184890 0.609429 0.000000
0.218656 0.609429 0.000000
0.251972 0.609429 0.000000
0.284908 0.609429 0.000000
0.317516 0.609429 0.000000
0.349834 0.609429 0.000000
0.381895 0.609429 0.000000
0.413722 0.609429 0.000000
0.445338 0.609429 0.000000
0.476760 0.609429 0.000000
0.508003 0.609429 0.000000
0.539079 0.609429 0.000000
0.570000 0.609429 0.000000
0.600776 0.609429 0.000000
0.631416 0.609429 0.000000
0.661927 0.609429 0.000000
0.713085 0.627712 0.000000
0.744266 0.627712 0.000000
0.775334 0.627712 0.000000
0.806295 0.627712 0.000000
0.837152 0.627712 0.000000
0.867910 0.627712 0.000000
0.898574 0.627712 0.000000
0.929148 0.627712 0.000000
0.959634 0.627712 0.000000
0.990036 0.627712 0.000000
1.000000 0.615189 0.000000
1.000000 0.597480 0.000000
0.000000 0.639862 0.000000
0.042059 0.639862 0.000000
0.079581 0.639862 0.000000
0.115562 0.639862 0.000000
0.150577 0.639862 0.000000
0.184890 0.639862 0.000000
0.218656 0.639862 0.000000
0.251972 0.639862 0.000000
0.284908 0.639862 0.000000
0.317516 0.639862 0.000000
0.349834 0.639862 0.000000
0.381895 0.639862 0.000000
0.413722 0.639862 0.000000
0.445338 0.639862 0.000000
0.476760 0.639862 0.000000
0.508003 0.639862 0.000000
0.539079 0.639862 0.000000
0.570000 0.639862 0.000000
0.600776 0.639862 0.000000
0.631416 0.639862 0.000000
0.661927 0.639862 0.000000
0.692315 0.639862 0.000000
0.744266 0.659057 0.000000
0.775334 0.659057 0.000000
0.806295 0.659057 0.000000
0.837152 0.659057 0.000000
0.867910 0.659057 0.000000
0.898574 0.659057 0.000000
0.929148 0.659057 0.000000
0.959634 0.659057 0.000000
0.990036 0.659057 0.000000
1.000000 0.645909 0.000000
1.000000 0.627315 0.000000
0.000000 0.670218 0.000000
0.042059 0.670218 0.000000
0.079581 0.670218 0.000000
0.115562 0.670218 0.000000
0.150577 0.670218 0.000000
0.184890 0.670218 0.000000
0.218656 0.670218 0.000000
0.251972 0.670218 0.000000
0.284908 0.670218 0.000000
0.317516 0.670218 0.000000
0.349834 0.670218 0.000000
0.381895 0.670218 0.000000
0.413722 0.670218 0.000000
0.445338 0.670218 0.000000
0.476760 0.670218 0.000000
0.508003 0.670218 0.000000
0.539079 0.670218 0.000000
0.570000 0.670218 0.000000
0.600776 0.670218 0.000000
0.631416 0.670218 0.000000
0.661927 0.670218 0.000000
0.692315 0.670218 0.000000
0.722589 0.670218 0.000000
0.775334 0.690324 0.000000
0.806295 0.690324 0.000000
0.837152 0.690324 0.000000
0.867910 0.690324 0.000000
0.898574 0.690324 0.000000
0.929148 0.690324 0.000000
0.959634 0.690324 0.000000
0.990036 0.690324 0.000000
1.000000 0.676552 0.000000
1.000000 0.657076 0.000000
0.000000 0.700501 0.000000
0.042059 0.700501 0.000000
0.079581 0.700501 0.000000
0.115562 0.700501 0.000000
0.150577 0.700501 0.000000
0.184890 0.700501 0.000000
0.218656 0.700501 0.000000
0.251972 0.700501 0.000000
0.284908 0.700501 0.000000
0.317516 0.700501 0.000000
0.349834 0.700501 0.000000
0.381895 0.700501 0.000000
0.413722 0.700501 0.000000
0.445338 0.700501 0.000000
0.476760 0.700501 0.000000
0.508003 0.700501 0.000000
0.539079 0.700501 0.000000
0.570000 0.700501 0.000000
0.600776 0.700501 0.000000
0.631416 0.700501 0.000000
0.661927 0.700501 0.000000
0.692315 0.700501 0.000000
0.722589 0.700501 0.000000
0.752752 0.700501 0.000000
0.806295 0.721517 0.000000
0.837152 0.721517 0.000000
0.867910 0.721517 0.000000
0.898574 0.721517 0.000000
0.929148 0.721517 0.000000
0.959634 0.721517 0.000000
0.990036 0.721517 0.000000
1.000000 0.707122 0.000000
1.000000 0.686766 0.000000
0.000000 0.730717 0.000000
0.042059 0.730717 0.000000
0.079581 0.730717 0.000000
0.115562 0.730717 0.000000
0.150577 0.730717 0.000000
0.184890 0.730717 0.000000
0.218656 0.730717 0.000000
0.251972 0.730717 0.000000
0.284908 0.730717 0.000000
0.317516 0.730717 0.000000
0.349834 0.730717 0.000000
0.381895 0.730717 0.000000
0.413722 0.730717 0.000000
0.445338 0.730717 0.000000
0.476760 0.730717 0.000000
0.508003 0.730717 0.000000
0.539079 0.730717 0.000000
0.570000 0.730717 0.000000
0.600776 0.730717 0.000000
0.631416 0.730717 0.000000
0.661927 0.730717 0.000000
0.692315 0.730717 0.000000
0.722589 0.730717 0.000000
0.752752 0.730717 0.000000
0.782810 0.730717 0.000000
0.837152 0.752638 0.000000
0.867910 0.752638 0.000000
0.898574 0.752638 0.000000
0.929148 0.752638 0.000000
0.959634 0.752638 0.000000
0.990036 0.752638 0.000000
1.000000 0.737622 0.000000
1.000000 0.716389 0.000000
0.000000 0.760866 0.000000
0.042059 0.760866 0.000000
0.079581 0.760866 0.000000
0.115562 0.760866 0.000000
0.150577 0.760866 0.000000
0.184890 0.760866 0.000000
0.218656 0.760866 0.000000
0.251972 0.760866 0.000000
0.284908 0.760866 0.000000
0.317516 0.760866 0.000000
0.349834 0.760866 0.000000
0.381895 0.760866 0.000000
0.413722 0.760866 0.000000
0.445338 0.760866 0.000000
0.476760 0.760866 0.000000
0.508003 0.760866 0.000000
0.539079 0.760866 0.000000
0.570000 0.760866 0.000000
0.600776 0.760866 0.000000
0.631416 0.760866 0.000000
0.661927 0.760866 0.000000
0.692315 0.760866 0.000000
0.722589 0.760866 0.000000
0.752752 0.760866 0.000000
0.782810 0.760866 0.000000
0.812769 0.760866 0.000000
0.867910 0.783692 0.000000
0.898574 0.783692 0.000000
0.929148 0.783692 0.000000
0.959634 0.783692 0.000000
0.990036 0.783692 0.000000
1.000000 0.768057 0.000000
1.000000 0.745947 0.000000
0.000000 0.790953 0.000000
0.042059 0.790953 0.000000
0.079581 0.790953 0.000000
0.115562 0.790953 0.000000
0.150577 0.790953 0.000000
0.184890 0.790953 0.000000
0.218656 0.790953 0.000000
0.251972 0.790953 0.000000
0.284908 0.790953 0.000000
0.317516 0.790953 0.000000
0.349834 0.790953 0.000000
0.381895 0.790953 0.000000
0.413722 0.790953 0.000000
0.445338 0.790953 0.000000
0.476760 0.790953 0.000000
0.508003 0.790953 0.000000
0.539079 0.790953 0.000000
0.570000 0.790953 0.000000
0.600776 0.790953 0.000000
0.631416 0.790953 0.000000
0.661927 0.790953 0.000000
0.692315 0.790953 0.000000
0.722589 0.790953 0.000000
0.752752 0.790953 0.000000
0.782810 0.790953 0.000000
0.812769 0.790953 0.000000
0.842631 0.790953 0.000000
0.898574 0.814681 0.000000
0.929148 0.814681 0.000000
0.959634 0.814681 0.000000
0.990036 0.814681 0.000000
1.000000 0.798428 0.000000
1.000000 0.775444 0.000000
0.000000 0.820979 0.000000
0.042059 0.820979 0.000000
0.079581 0.820979 0.000000
0.115562 0.820979 0.000000
0.150577 0.820979 0.000000
0.184890 0.820979 0.000000
0.218656 0.820979 0.000000
0.251972 0.820979 0.000000
0.284908 0.820979 0.000000
0.317516 0.820979 0.000000
0.349834 0.820979 0.000000
0.381895 0.820979 0.000000
0.413722 0.820979 0.000000
0.445338 0.820979 0.000000
0.476760 0.820979 0.000000
0.508003 0.820979 0.000000
0.539079 0.820979 0.000000
0.570000 0.820979 0.000000
0.600776 0.820979 0.000000
0.631416 0.820979 0.000000
0.661927 0.820979 0.000000
0.692315 0.820979 0.000000
0.722589 0.820979 0.000000
0.752752 0.820979 0.000000
0.782810 0.820979 0.000000
0.812769 0.820979 0.000000
